(This GCode script was designed to adjust the Z height of a CNC machine according)
(to the minute variations in the surface height in order to achieve a better result in the milling/etching process)
(This script is the output of AutoLevellerAE, 0.9.5u2 Changeset: ...2d0387 @ http://autoleveller.co.uk)
(Author: James Hawthorne PhD. File creation date: 25-12-2019 21:09)
(This program and any of its output is licensed under GPLv2 and as such...)
(AutoLevellerAE comes with ABSOLUTELY NO WARRANTY; for details, see sections 11 and 12 of the GPLv2 @ http://www.gnu.org/licenses/old-licenses/gpl-2.0.html)

(The following is a checklist which can be used before the probe routine starts)
(The checklist may not be entirely correct given your machine, therefore you should make your own adaptations as appropriate)
(1. Make sure wires/clips are attached and the probe is working correctly)
(Test probe connections within control software before starting)
(2. Home all axis)
(3. Load GCode file that contains the probe routine into your software controller)
(4. Jog tool tip close to surface and touch off Z)
(5. Jog Z up a fraction to make sure surface is cleared)
(6. Jog to and touch off X and Y at the desired bottom left corner of the probe area)
(Note: The first probe will touch off Z to 0.0 when it first touches to the surface,)
(all other probe values are relative to this first point)

G90 G21 S20000 G17

M0 (Attach probe wires and clips that need attaching)
(Initialize probe routine)
G0 Z25 (Move clear of the board first)
G1 X-0.052 Y-0.052 F400 (Move to bottom left corner)
G0 Z5 (Quick move to probe clearance height)
G4 P1
G31 Z-1 F100 (Probe to a maximum of the specified probe height at the specified feed rate)
M2002
G52 Z0 (Touch off Z to 0 once contact is made)
G0 Z5 (Move Z to above the contact point)
G4 P1
G31 Z-1 F50 (Repeat at a more accurate slower rate)
M2002
G52 Z0
G0 Z5

G0 Z5
G1 X-0.052 Y-0.052 F400
G4 P1
G31 Z-1 F100
M2002
#500=#2002
G0 Z5
G1 X7.9148 Y-0.052 F400
G4 P1
G31 Z-1 F100
M2002
#501=#2002
G0 Z5
G1 X15.8816 Y-0.052 F400
G4 P1
G31 Z-1 F100
M2002
#502=#2002
G0 Z5
G1 X23.8484 Y-0.052 F400
G4 P1
G31 Z-1 F100
M2002
#503=#2002
G0 Z5
G1 X31.8152 Y-0.052 F400
G4 P1
G31 Z-1 F100
M2002
#504=#2002
G0 Z5
G1 X39.782 Y-0.052 F400
G4 P1
G31 Z-1 F100
M2002
#505=#2002
G0 Z5
G1 X39.782 Y7.02657 F400
G4 P1
G31 Z-1 F100
M2002
#511=#2002
G0 Z5
G1 X31.8152 Y7.02657 F400
G4 P1
G31 Z-1 F100
M2002
#510=#2002
G0 Z5
G1 X23.8484 Y7.02657 F400
G4 P1
G31 Z-1 F100
M2002
#509=#2002
G0 Z5
G1 X15.8816 Y7.02657 F400
G4 P1
G31 Z-1 F100
M2002
#508=#2002
G0 Z5
G1 X7.9148 Y7.02657 F400
G4 P1
G31 Z-1 F100
M2002
#507=#2002
G0 Z5
G1 X-0.052 Y7.02657 F400
G4 P1
G31 Z-1 F100
M2002
#506=#2002
G0 Z5
G1 X-0.052 Y14.10514 F400
G4 P1
G31 Z-1 F100
M2002
#512=#2002
G0 Z5
G1 X7.9148 Y14.10514 F400
G4 P1
G31 Z-1 F100
M2002
#513=#2002
G0 Z5
G1 X15.8816 Y14.10514 F400
G4 P1
G31 Z-1 F100
M2002
#514=#2002
G0 Z5
G1 X23.8484 Y14.10514 F400
G4 P1
G31 Z-1 F100
M2002
#515=#2002
G0 Z5
G1 X31.8152 Y14.10514 F400
G4 P1
G31 Z-1 F100
M2002
#516=#2002
G0 Z5
G1 X39.782 Y14.10514 F400
G4 P1
G31 Z-1 F100
M2002
#517=#2002
G0 Z5
G1 X39.782 Y21.18371 F400
G4 P1
G31 Z-1 F100
M2002
#523=#2002
G0 Z5
G1 X31.8152 Y21.18371 F400
G4 P1
G31 Z-1 F100
M2002
#522=#2002
G0 Z5
G1 X23.8484 Y21.18371 F400
G4 P1
G31 Z-1 F100
M2002
#521=#2002
G0 Z5
G1 X15.8816 Y21.18371 F400
G4 P1
G31 Z-1 F100
M2002
#520=#2002
G0 Z5
G1 X7.9148 Y21.18371 F400
G4 P1
G31 Z-1 F100
M2002
#519=#2002
G0 Z5
G1 X-0.052 Y21.18371 F400
G4 P1
G31 Z-1 F100
M2002
#518=#2002
G0 Z5
G1 X-0.052 Y28.26228 F400
G4 P1
G31 Z-1 F100
M2002
#524=#2002
G0 Z5
G1 X7.9148 Y28.26228 F400
G4 P1
G31 Z-1 F100
M2002
#525=#2002
G0 Z5
G1 X15.8816 Y28.26228 F400
G4 P1
G31 Z-1 F100
M2002
#526=#2002
G0 Z5
G1 X23.8484 Y28.26228 F400
G4 P1
G31 Z-1 F100
M2002
#527=#2002
G0 Z5
G1 X31.8152 Y28.26228 F400
G4 P1
G31 Z-1 F100
M2002
#528=#2002
G0 Z5
G1 X39.782 Y28.26228 F400
G4 P1
G31 Z-1 F100
M2002
#529=#2002
G0 Z5
G1 X39.782 Y35.34085 F400
G4 P1
G31 Z-1 F100
M2002
#535=#2002
G0 Z5
G1 X31.8152 Y35.34085 F400
G4 P1
G31 Z-1 F100
M2002
#534=#2002
G0 Z5
G1 X23.8484 Y35.34085 F400
G4 P1
G31 Z-1 F100
M2002
#533=#2002
G0 Z5
G1 X15.8816 Y35.34085 F400
G4 P1
G31 Z-1 F100
M2002
#532=#2002
G0 Z5
G1 X7.9148 Y35.34085 F400
G4 P1
G31 Z-1 F100
M2002
#531=#2002
G0 Z5
G1 X-0.052 Y35.34085 F400
G4 P1
G31 Z-1 F100
M2002
#530=#2002
G0 Z5
G1 X-0.052 Y42.41942 F400
G4 P1
G31 Z-1 F100
M2002
#536=#2002
G0 Z5
G1 X7.9148 Y42.41942 F400
G4 P1
G31 Z-1 F100
M2002
#537=#2002
G0 Z5
G1 X15.8816 Y42.41942 F400
G4 P1
G31 Z-1 F100
M2002
#538=#2002
G0 Z5
G1 X23.8484 Y42.41942 F400
G4 P1
G31 Z-1 F100
M2002
#539=#2002
G0 Z5
G1 X31.8152 Y42.41942 F400
G4 P1
G31 Z-1 F100
M2002
#540=#2002
G0 Z5
G1 X39.782 Y42.41942 F400
G4 P1
G31 Z-1 F100
M2002
#541=#2002
G0 Z5
G1 X39.782 Y49.49799 F400
G4 P1
G31 Z-1 F100
M2002
#547=#2002
G0 Z5
G1 X31.8152 Y49.49799 F400
G4 P1
G31 Z-1 F100
M2002
#546=#2002
G0 Z5
G1 X23.8484 Y49.49799 F400
G4 P1
G31 Z-1 F100
M2002
#545=#2002
G0 Z5
G1 X15.8816 Y49.49799 F400
G4 P1
G31 Z-1 F100
M2002
#544=#2002
G0 Z5
G1 X7.9148 Y49.49799 F400
G4 P1
G31 Z-1 F100
M2002
#543=#2002
G0 Z5
G1 X-0.052 Y49.49799 F400
G4 P1
G31 Z-1 F100
M2002
#542=#2002
G0 Z5.00000

M0 (Detach any clips used for probing)


G21
G90
G94
F400.00
G00 Z5.0000
M03
G4 P1
G00 X5.2018Y10.4071
#102=[#512+0.52243*#506-0.52243*#512]
#101=[#513+0.52243*#507-0.52243*#513]
#100=[#102+0.65946*#101-0.65946*#102]
G01 Z[#100+-0.0200]
#102=[#512+0.52243*#506-0.52243*#512]
#101=[#513+0.52243*#507-0.52243*#513]
#100=[#102+0.70711*#101-0.70711*#102]
G01 X5.5814Y10.4071Z[#100+-0.0200]
#102=[#512+0.52185*#506-0.52185*#512]
#101=[#513+0.52185*#507-0.52185*#513]
#100=[#102+0.71757*#101-0.71757*#102]
G01 X5.6647Y10.4112Z[#100+-0.0200]
#102=[#512+0.52012*#506-0.52012*#512]
#101=[#513+0.52012*#507-0.52012*#513]
#100=[#102+0.72792*#101-0.72792*#102]
G01 X5.7472Y10.4234Z[#100+-0.0200]
#102=[#512+0.51744*#506-0.51744*#512]
#101=[#513+0.51744*#507-0.51744*#513]
#100=[#102+0.73749*#101-0.73749*#102]
G01 X5.8234Y10.4424Z[#100+-0.0200]
#102=[#512+0.51300*#506-0.51300*#512]
#101=[#513+0.51300*#507-0.51300*#513]
#100=[#102+0.74851*#101-0.74851*#102]
G01 X5.9112Y10.4738Z[#100+-0.0200]
#102=[#512+0.50824*#506-0.50824*#512]
#101=[#513+0.50824*#507-0.50824*#513]
#100=[#102+0.75741*#101-0.75741*#102]
G01 X5.9821Y10.5075Z[#100+-0.0200]
#102=[#512+0.50218*#506-0.50218*#512]
#101=[#513+0.50218*#507-0.50218*#513]
#100=[#102+0.76638*#101-0.76638*#102]
G01 X6.0536Y10.5504Z[#100+-0.0200]
#102=[#512+0.49518*#506-0.49518*#512]
#101=[#513+0.49518*#507-0.49518*#513]
#100=[#102+0.77479*#101-0.77479*#102]
G01 X6.1206Y10.6000Z[#100+-0.0200]
#102=[#512+0.48725*#506-0.48725*#512]
#101=[#513+0.48725*#507-0.48725*#513]
#100=[#102+0.78255*#101-0.78255*#102]
G01 X6.1824Y10.6561Z[#100+-0.0200]
#102=[#512+0.47852*#506-0.47852*#512]
#101=[#513+0.47852*#507-0.47852*#513]
#100=[#102+0.78959*#101-0.78959*#102]
G01 X6.2385Y10.7179Z[#100+-0.0200]
#102=[#512+0.46906*#506-0.46906*#512]
#101=[#513+0.46906*#507-0.46906*#513]
#100=[#102+0.79582*#101-0.79582*#102]
G01 X6.2881Y10.7849Z[#100+-0.0200]
#102=[#512+0.45895*#506-0.45895*#512]
#101=[#513+0.45895*#507-0.45895*#513]
#100=[#102+0.80120*#101-0.80120*#102]
G01 X6.3310Y10.8564Z[#100+-0.0200]
#102=[#512+0.44830*#506-0.44830*#512]
#101=[#513+0.44830*#507-0.44830*#513]
#100=[#102+0.80568*#101-0.80568*#102]
G01 X6.3667Y10.9318Z[#100+-0.0200]
#102=[#512+0.43720*#506-0.43720*#512]
#101=[#513+0.43720*#507-0.43720*#513]
#100=[#102+0.80921*#101-0.80921*#102]
G01 X6.3948Y11.0104Z[#100+-0.0200]
#102=[#512+0.42577*#506-0.42577*#512]
#101=[#513+0.42577*#507-0.42577*#513]
#100=[#102+0.81176*#101-0.81176*#102]
G01 X6.4151Y11.0913Z[#100+-0.0200]
#102=[#512+0.41411*#506-0.41411*#512]
#101=[#513+0.41411*#507-0.41411*#513]
#100=[#102+0.81329*#101-0.81329*#102]
G01 X6.4273Y11.1738Z[#100+-0.0200]
#102=[#512+0.40270*#506-0.40270*#512]
#101=[#513+0.40270*#507-0.40270*#513]
#100=[#102+0.81380*#101-0.81380*#102]
G01 X6.4314Y11.2546Z[#100+-0.0200]
#102=[#512+0.39058*#506-0.39058*#512]
#101=[#513+0.39058*#507-0.39058*#513]
#100=[#102+0.81329*#101-0.81329*#102]
G01 X6.4273Y11.3404Z[#100+-0.0200]
#102=[#512+0.37892*#506-0.37892*#512]
#101=[#513+0.37892*#507-0.37892*#513]
#100=[#102+0.81176*#101-0.81176*#102]
G01 X6.4151Y11.4229Z[#100+-0.0200]
#102=[#512+0.36750*#506-0.36750*#512]
#101=[#513+0.36750*#507-0.36750*#513]
#100=[#102+0.80921*#101-0.80921*#102]
G01 X6.3948Y11.5038Z[#100+-0.0200]
#102=[#512+0.35639*#506-0.35639*#512]
#101=[#513+0.35639*#507-0.35639*#513]
#100=[#102+0.80568*#101-0.80568*#102]
G01 X6.3667Y11.5824Z[#100+-0.0200]
#102=[#512+0.34574*#506-0.34574*#512]
#101=[#513+0.34574*#507-0.34574*#513]
#100=[#102+0.80120*#101-0.80120*#102]
G01 X6.3310Y11.6578Z[#100+-0.0200]
#102=[#512+0.33564*#506-0.33564*#512]
#101=[#513+0.33564*#507-0.33564*#513]
#100=[#102+0.79582*#101-0.79582*#102]
G01 X6.2881Y11.7293Z[#100+-0.0200]
#102=[#512+0.32617*#506-0.32617*#512]
#101=[#513+0.32617*#507-0.32617*#513]
#100=[#102+0.78959*#101-0.78959*#102]
G01 X6.2385Y11.7963Z[#100+-0.0200]
#102=[#512+0.31744*#506-0.31744*#512]
#101=[#513+0.31744*#507-0.31744*#513]
#100=[#102+0.78255*#101-0.78255*#102]
G01 X6.1824Y11.8581Z[#100+-0.0200]
#102=[#512+0.30952*#506-0.30952*#512]
#101=[#513+0.30952*#507-0.30952*#513]
#100=[#102+0.77479*#101-0.77479*#102]
G01 X6.1206Y11.9142Z[#100+-0.0200]
#102=[#512+0.30251*#506-0.30251*#512]
#101=[#513+0.30251*#507-0.30251*#513]
#100=[#102+0.76638*#101-0.76638*#102]
G01 X6.0536Y11.9638Z[#100+-0.0200]
#102=[#512+0.29645*#506-0.29645*#512]
#101=[#513+0.29645*#507-0.29645*#513]
#100=[#102+0.75741*#101-0.75741*#102]
G01 X5.9821Y12.0067Z[#100+-0.0200]
#102=[#512+0.29141*#506-0.29141*#512]
#101=[#513+0.29141*#507-0.29141*#513]
#100=[#102+0.74794*#101-0.74794*#102]
G01 X5.9067Y12.0424Z[#100+-0.0200]
#102=[#512+0.28744*#506-0.28744*#512]
#101=[#513+0.28744*#507-0.28744*#513]
#100=[#102+0.73808*#101-0.73808*#102]
G01 X5.8281Y12.0705Z[#100+-0.0200]
#102=[#512+0.28457*#506-0.28457*#512]
#101=[#513+0.28457*#507-0.28457*#513]
#100=[#102+0.72792*#101-0.72792*#102]
G01 X5.7472Y12.0908Z[#100+-0.0200]
#102=[#512+0.28285*#506-0.28285*#512]
#101=[#513+0.28285*#507-0.28285*#513]
#100=[#102+0.71757*#101-0.71757*#102]
G01 X5.6647Y12.1030Z[#100+-0.0200]
#102=[#512+0.28227*#506-0.28227*#512]
#101=[#513+0.28227*#507-0.28227*#513]
#100=[#102+0.70742*#101-0.70742*#102]
G01 X5.5839Y12.1071Z[#100+-0.0200]
#102=[#512+0.28227*#506-0.28227*#512]
#101=[#513+0.28227*#507-0.28227*#513]
#100=[#102+0.65946*#101-0.65946*#102]
G01 X5.2018Y12.1071Z[#100+-0.0200]
#102=[#512+0.28279*#506-0.28279*#512]
#101=[#513+0.28279*#507-0.28279*#513]
#100=[#102+0.64962*#101-0.64962*#102]
G01 X5.1234Y12.1034Z[#100+-0.0200]
#102=[#512+0.28457*#506-0.28457*#512]
#101=[#513+0.28457*#507-0.28457*#513]
#100=[#102+0.63865*#101-0.63865*#102]
G01 X5.0360Y12.0908Z[#100+-0.0200]
#102=[#512+0.28744*#506-0.28744*#512]
#101=[#513+0.28744*#507-0.28744*#513]
#100=[#102+0.62850*#101-0.62850*#102]
G01 X4.9551Y12.0705Z[#100+-0.0200]
#102=[#512+0.29141*#506-0.29141*#512]
#101=[#513+0.29141*#507-0.29141*#513]
#100=[#102+0.61863*#101-0.61863*#102]
G01 X4.8765Y12.0424Z[#100+-0.0200]
#102=[#512+0.29645*#506-0.29645*#512]
#101=[#513+0.29645*#507-0.29645*#513]
#100=[#102+0.60917*#101-0.60917*#102]
G01 X4.8011Y12.0067Z[#100+-0.0200]
#102=[#512+0.30251*#506-0.30251*#512]
#101=[#513+0.30251*#507-0.30251*#513]
#100=[#102+0.60019*#101-0.60019*#102]
G01 X4.7296Y11.9638Z[#100+-0.0200]
#102=[#512+0.30997*#506-0.30997*#512]
#101=[#513+0.30997*#507-0.30997*#513]
#100=[#102+0.59130*#101-0.59130*#102]
G01 X4.6588Y11.9110Z[#100+-0.0200]
#102=[#512+0.31794*#506-0.31794*#512]
#101=[#513+0.31794*#507-0.31794*#513]
#100=[#102+0.58360*#101-0.58360*#102]
G01 X4.5974Y11.8546Z[#100+-0.0200]
#102=[#512+0.32617*#506-0.32617*#512]
#101=[#513+0.32617*#507-0.32617*#513]
#100=[#102+0.57698*#101-0.57698*#102]
G01 X4.5447Y11.7963Z[#100+-0.0200]
#102=[#512+0.33507*#506-0.33507*#512]
#101=[#513+0.33507*#507-0.33507*#513]
#100=[#102+0.57111*#101-0.57111*#102]
G01 X4.4979Y11.7333Z[#100+-0.0200]
#102=[#512+0.34574*#506-0.34574*#512]
#101=[#513+0.34574*#507-0.34574*#513]
#100=[#102+0.56537*#101-0.56537*#102]
G01 X4.4522Y11.6578Z[#100+-0.0200]
#102=[#512+0.35639*#506-0.35639*#512]
#101=[#513+0.35639*#507-0.35639*#513]
#100=[#102+0.56089*#101-0.56089*#102]
G01 X4.4165Y11.5824Z[#100+-0.0200]
#102=[#512+0.36816*#506-0.36816*#512]
#101=[#513+0.36816*#507-0.36816*#513]
#100=[#102+0.55720*#101-0.55720*#102]
G01 X4.3871Y11.4991Z[#100+-0.0200]
#102=[#512+0.37892*#506-0.37892*#512]
#101=[#513+0.37892*#507-0.37892*#513]
#100=[#102+0.55481*#101-0.55481*#102]
G01 X4.3681Y11.4229Z[#100+-0.0200]
#102=[#512+0.38989*#506-0.38989*#512]
#101=[#513+0.38989*#507-0.38989*#513]
#100=[#102+0.55336*#101-0.55336*#102]
G01 X4.3565Y11.3453Z[#100+-0.0200]
#102=[#512+0.40235*#506-0.40235*#512]
#101=[#513+0.40235*#507-0.40235*#513]
#100=[#102+0.55277*#101-0.55277*#102]
G01 X4.3518Y11.2571Z[#100+-0.0200]
#102=[#512+0.41411*#506-0.41411*#512]
#101=[#513+0.41411*#507-0.41411*#513]
#100=[#102+0.55328*#101-0.55328*#102]
G01 X4.3559Y11.1738Z[#100+-0.0200]
#102=[#512+0.42645*#506-0.42645*#512]
#101=[#513+0.42645*#507-0.42645*#513]
#100=[#102+0.55495*#101-0.55495*#102]
G01 X4.3692Y11.0865Z[#100+-0.0200]
#102=[#512+0.43720*#506-0.43720*#512]
#101=[#513+0.43720*#507-0.43720*#513]
#100=[#102+0.55736*#101-0.55736*#102]
G01 X4.3884Y11.0104Z[#100+-0.0200]
#102=[#512+0.44765*#506-0.44765*#512]
#101=[#513+0.44765*#507-0.44765*#513]
#100=[#102+0.56066*#101-0.56066*#102]
G01 X4.4147Y10.9364Z[#100+-0.0200]
#102=[#512+0.45895*#506-0.45895*#512]
#101=[#513+0.45895*#507-0.45895*#513]
#100=[#102+0.56537*#101-0.56537*#102]
G01 X4.4522Y10.8564Z[#100+-0.0200]
#102=[#512+0.46906*#506-0.46906*#512]
#101=[#513+0.46906*#507-0.46906*#513]
#100=[#102+0.57076*#101-0.57076*#102]
G01 X4.4951Y10.7849Z[#100+-0.0200]
#102=[#512+0.47852*#506-0.47852*#512]
#101=[#513+0.47852*#507-0.47852*#513]
#100=[#102+0.57698*#101-0.57698*#102]
G01 X4.5447Y10.7179Z[#100+-0.0200]
#102=[#512+0.48773*#506-0.48773*#512]
#101=[#513+0.48773*#507-0.48773*#513]
#100=[#102+0.58446*#101-0.58446*#102]
G01 X4.6043Y10.6527Z[#100+-0.0200]
#102=[#512+0.49518*#506-0.49518*#512]
#101=[#513+0.49518*#507-0.49518*#513]
#100=[#102+0.59178*#101-0.59178*#102]
G01 X4.6626Y10.6000Z[#100+-0.0200]
#102=[#512+0.50179*#506-0.50179*#512]
#101=[#513+0.50179*#507-0.50179*#513]
#100=[#102+0.59969*#101-0.59969*#102]
G01 X4.7256Y10.5532Z[#100+-0.0200]
#102=[#512+0.50824*#506-0.50824*#512]
#101=[#513+0.50824*#507-0.50824*#513]
#100=[#102+0.60917*#101-0.60917*#102]
G01 X4.8011Y10.5075Z[#100+-0.0200]
#102=[#512+0.51354*#506-0.51354*#512]
#101=[#513+0.51354*#507-0.51354*#513]
#100=[#102+0.61921*#101-0.61921*#102]
G01 X4.8811Y10.4700Z[#100+-0.0200]
#102=[#512+0.51726*#506-0.51726*#512]
#101=[#513+0.51726*#507-0.51726*#513]
#100=[#102+0.62850*#101-0.62850*#102]
G01 X4.9551Y10.4437Z[#100+-0.0200]
#102=[#512+0.51997*#506-0.51997*#512]
#101=[#513+0.51997*#507-0.51997*#513]
#100=[#102+0.63805*#101-0.63805*#102]
G01 X5.0312Y10.4245Z[#100+-0.0200]
#102=[#512+0.52185*#506-0.52185*#512]
#101=[#513+0.52185*#507-0.52185*#513]
#100=[#102+0.64901*#101-0.64901*#102]
G01 X5.1185Y10.4112Z[#100+-0.0200]
#102=[#512+0.52243*#506-0.52243*#512]
#101=[#513+0.52243*#507-0.52243*#513]
#100=[#102+0.65946*#101-0.65946*#102]
G01 X5.2018Y10.4071Z[#100+-0.0200]
G00 Z5.0000
G00 X6.6616Y12.0821
#102=[#512+0.28580*#506-0.28580*#512]
#101=[#513+0.28580*#507-0.28580*#513]
#100=[#102+0.84270*#101-0.84270*#102]
G01 Z[#100+-0.0200]
#102=[#512+0.28046*#506-0.28046*#512]
#101=[#513+0.28046*#507-0.28046*#513]
#100=[#102+0.84632*#101-0.84632*#102]
G01 X6.6905Y12.1199Z[#100+-0.0200]
#102=[#512+0.27727*#506-0.27727*#512]
#101=[#513+0.27727*#507-0.27727*#513]
#100=[#102+0.84878*#101-0.84878*#102]
G01 X6.7101Y12.1425Z[#100+-0.0200]
#102=[#512+0.26955*#506-0.26955*#512]
#101=[#513+0.26955*#507-0.26955*#513]
#100=[#102+0.85499*#101-0.85499*#102]
G01 X6.7595Y12.1971Z[#100+-0.0200]
#102=[#512+0.26649*#506-0.26649*#512]
#101=[#513+0.26649*#507-0.26649*#513]
#100=[#102+0.85757*#101-0.85757*#102]
G01 X6.7801Y12.2188Z[#100+-0.0200]
#102=[#512+0.26358*#506-0.26358*#512]
#101=[#513+0.26358*#507-0.26358*#513]
#100=[#102+0.86030*#101-0.86030*#102]
G01 X6.8018Y12.2394Z[#100+-0.0200]
#102=[#512+0.25660*#506-0.25660*#512]
#101=[#513+0.25660*#507-0.25660*#513]
#100=[#102+0.86715*#101-0.86715*#102]
G01 X6.8564Y12.2888Z[#100+-0.0200]
#102=[#512+0.25383*#506-0.25383*#512]
#101=[#513+0.25383*#507-0.25383*#513]
#100=[#102+0.86999*#101-0.86999*#102]
G01 X6.8790Y12.3084Z[#100+-0.0200]
#102=[#512+0.25123*#506-0.25123*#512]
#101=[#513+0.25123*#507-0.25123*#513]
#100=[#102+0.87295*#101-0.87295*#102]
G01 X6.9026Y12.3268Z[#100+-0.0200]
#102=[#512+0.24503*#506-0.24503*#512]
#101=[#513+0.24503*#507-0.24503*#513]
#100=[#102+0.88037*#101-0.88037*#102]
G01 X6.9617Y12.3707Z[#100+-0.0200]
#102=[#512+0.24260*#506-0.24260*#512]
#101=[#513+0.24260*#507-0.24260*#513]
#100=[#102+0.88344*#101-0.88344*#102]
G01 X6.9862Y12.3879Z[#100+-0.0200]
#102=[#512+0.24034*#506-0.24034*#512]
#101=[#513+0.24034*#507-0.24034*#513]
#100=[#102+0.88662*#101-0.88662*#102]
G01 X7.0115Y12.4039Z[#100+-0.0200]
#102=[#512+0.23498*#506-0.23498*#512]
#101=[#513+0.23498*#507-0.23498*#513]
#100=[#102+0.89454*#101-0.89454*#102]
G01 X7.0746Y12.4418Z[#100+-0.0200]
#102=[#512+0.23291*#506-0.23291*#512]
#101=[#513+0.23291*#507-0.23291*#513]
#100=[#102+0.89781*#101-0.89781*#102]
G01 X7.1007Y12.4565Z[#100+-0.0200]
#102=[#512+0.23100*#506-0.23100*#512]
#101=[#513+0.23100*#507-0.23100*#513]
#100=[#102+0.90116*#101-0.90116*#102]
G01 X7.1274Y12.4700Z[#100+-0.0200]
#102=[#512+0.22656*#506-0.22656*#512]
#101=[#513+0.22656*#507-0.22656*#513]
#100=[#102+0.90952*#101-0.90952*#102]
G01 X7.1940Y12.5014Z[#100+-0.0200]
#102=[#512+0.22484*#506-0.22484*#512]
#101=[#513+0.22484*#507-0.22484*#513]
#100=[#102+0.91296*#101-0.91296*#102]
G01 X7.2214Y12.5136Z[#100+-0.0200]
#102=[#512+0.22293*#506-0.22293*#512]
#101=[#513+0.22293*#507-0.22293*#513]
#100=[#102+0.91743*#101-0.91743*#102]
G01 X7.2570Y12.5271Z[#100+-0.0200]
#102=[#512+0.22102*#506-0.22102*#512]
#101=[#513+0.22102*#507-0.22102*#513]
#100=[#102+0.91296*#101-0.91296*#102]
G01 X7.2214Y12.5406Z[#100+-0.0200]
#102=[#512+0.21930*#506-0.21930*#512]
#101=[#513+0.21930*#507-0.21930*#513]
#100=[#102+0.90952*#101-0.90952*#102]
G01 X7.1940Y12.5528Z[#100+-0.0200]
#102=[#512+0.21487*#506-0.21487*#512]
#101=[#513+0.21487*#507-0.21487*#513]
#100=[#102+0.90116*#101-0.90116*#102]
G01 X7.1274Y12.5842Z[#100+-0.0200]
#102=[#512+0.21296*#506-0.21296*#512]
#101=[#513+0.21296*#507-0.21296*#513]
#100=[#102+0.89781*#101-0.89781*#102]
G01 X7.1007Y12.5977Z[#100+-0.0200]
#102=[#512+0.21088*#506-0.21088*#512]
#101=[#513+0.21088*#507-0.21088*#513]
#100=[#102+0.89454*#101-0.89454*#102]
G01 X7.0746Y12.6124Z[#100+-0.0200]
#102=[#512+0.20553*#506-0.20553*#512]
#101=[#513+0.20553*#507-0.20553*#513]
#100=[#102+0.88662*#101-0.88662*#102]
G01 X7.0115Y12.6503Z[#100+-0.0200]
#102=[#512+0.20327*#506-0.20327*#512]
#101=[#513+0.20327*#507-0.20327*#513]
#100=[#102+0.88344*#101-0.88344*#102]
G01 X6.9862Y12.6663Z[#100+-0.0200]
#102=[#512+0.20084*#506-0.20084*#512]
#101=[#513+0.20084*#507-0.20084*#513]
#100=[#102+0.88037*#101-0.88037*#102]
G01 X6.9617Y12.6835Z[#100+-0.0200]
#102=[#512+0.19464*#506-0.19464*#512]
#101=[#513+0.19464*#507-0.19464*#513]
#100=[#102+0.87295*#101-0.87295*#102]
G01 X6.9026Y12.7274Z[#100+-0.0200]
#102=[#512+0.19204*#506-0.19204*#512]
#101=[#513+0.19204*#507-0.19204*#513]
#100=[#102+0.86999*#101-0.86999*#102]
G01 X6.8790Y12.7458Z[#100+-0.0200]
#102=[#512+0.18927*#506-0.18927*#512]
#101=[#513+0.18927*#507-0.18927*#513]
#100=[#102+0.86715*#101-0.86715*#102]
G01 X6.8564Y12.7654Z[#100+-0.0200]
#102=[#512+0.18229*#506-0.18229*#512]
#101=[#513+0.18229*#507-0.18229*#513]
#100=[#102+0.86030*#101-0.86030*#102]
G01 X6.8018Y12.8148Z[#100+-0.0200]
#102=[#512+0.17938*#506-0.17938*#512]
#101=[#513+0.17938*#507-0.17938*#513]
#100=[#102+0.85757*#101-0.85757*#102]
G01 X6.7801Y12.8354Z[#100+-0.0200]
#102=[#512+0.17631*#506-0.17631*#512]
#101=[#513+0.17631*#507-0.17631*#513]
#100=[#102+0.85499*#101-0.85499*#102]
G01 X6.7595Y12.8571Z[#100+-0.0200]
#102=[#512+0.16860*#506-0.16860*#512]
#101=[#513+0.16860*#507-0.16860*#513]
#100=[#102+0.84878*#101-0.84878*#102]
G01 X6.7101Y12.9117Z[#100+-0.0200]
#102=[#512+0.16541*#506-0.16541*#512]
#101=[#513+0.16541*#507-0.16541*#513]
#100=[#102+0.84632*#101-0.84632*#102]
G01 X6.6905Y12.9343Z[#100+-0.0200]
#102=[#512+0.16007*#506-0.16007*#512]
#101=[#513+0.16007*#507-0.16007*#513]
#100=[#102+0.84270*#101-0.84270*#102]
G01 X6.6616Y12.9721Z[#100+-0.0200]
#102=[#512+0.16541*#506-0.16541*#512]
#101=[#513+0.16541*#507-0.16541*#513]
#100=[#102+0.83907*#101-0.83907*#102]
G01 X6.6327Y12.9343Z[#100+-0.0200]
#102=[#512+0.16860*#506-0.16860*#512]
#101=[#513+0.16860*#507-0.16860*#513]
#100=[#102+0.83661*#101-0.83661*#102]
G01 X6.6131Y12.9117Z[#100+-0.0200]
#102=[#512+0.17631*#506-0.17631*#512]
#101=[#513+0.17631*#507-0.17631*#513]
#100=[#102+0.83041*#101-0.83041*#102]
G01 X6.5637Y12.8571Z[#100+-0.0200]
#102=[#512+0.17938*#506-0.17938*#512]
#101=[#513+0.17938*#507-0.17938*#513]
#100=[#102+0.82782*#101-0.82782*#102]
G01 X6.5431Y12.8354Z[#100+-0.0200]
#102=[#512+0.18229*#506-0.18229*#512]
#101=[#513+0.18229*#507-0.18229*#513]
#100=[#102+0.82510*#101-0.82510*#102]
G01 X6.5214Y12.8148Z[#100+-0.0200]
#102=[#512+0.18927*#506-0.18927*#512]
#101=[#513+0.18927*#507-0.18927*#513]
#100=[#102+0.81825*#101-0.81825*#102]
G01 X6.4668Y12.7654Z[#100+-0.0200]
#102=[#512+0.19204*#506-0.19204*#512]
#101=[#513+0.19204*#507-0.19204*#513]
#100=[#102+0.81541*#101-0.81541*#102]
G01 X6.4442Y12.7458Z[#100+-0.0200]
#102=[#512+0.19464*#506-0.19464*#512]
#101=[#513+0.19464*#507-0.19464*#513]
#100=[#102+0.81245*#101-0.81245*#102]
G01 X6.4206Y12.7274Z[#100+-0.0200]
#102=[#512+0.20084*#506-0.20084*#512]
#101=[#513+0.20084*#507-0.20084*#513]
#100=[#102+0.80503*#101-0.80503*#102]
G01 X6.3615Y12.6835Z[#100+-0.0200]
#102=[#512+0.20327*#506-0.20327*#512]
#101=[#513+0.20327*#507-0.20327*#513]
#100=[#102+0.80195*#101-0.80195*#102]
G01 X6.3370Y12.6663Z[#100+-0.0200]
#102=[#512+0.20553*#506-0.20553*#512]
#101=[#513+0.20553*#507-0.20553*#513]
#100=[#102+0.79878*#101-0.79878*#102]
G01 X6.3117Y12.6503Z[#100+-0.0200]
#102=[#512+0.21088*#506-0.21088*#512]
#101=[#513+0.21088*#507-0.21088*#513]
#100=[#102+0.79086*#101-0.79086*#102]
G01 X6.2486Y12.6124Z[#100+-0.0200]
#102=[#512+0.21296*#506-0.21296*#512]
#101=[#513+0.21296*#507-0.21296*#513]
#100=[#102+0.78758*#101-0.78758*#102]
G01 X6.2225Y12.5977Z[#100+-0.0200]
#102=[#512+0.21487*#506-0.21487*#512]
#101=[#513+0.21487*#507-0.21487*#513]
#100=[#102+0.78423*#101-0.78423*#102]
G01 X6.1958Y12.5842Z[#100+-0.0200]
#102=[#512+0.21930*#506-0.21930*#512]
#101=[#513+0.21930*#507-0.21930*#513]
#100=[#102+0.77587*#101-0.77587*#102]
G01 X6.1292Y12.5528Z[#100+-0.0200]
#102=[#512+0.22102*#506-0.22102*#512]
#101=[#513+0.22102*#507-0.22102*#513]
#100=[#102+0.77243*#101-0.77243*#102]
G01 X6.1018Y12.5406Z[#100+-0.0200]
#102=[#512+0.22293*#506-0.22293*#512]
#101=[#513+0.22293*#507-0.22293*#513]
#100=[#102+0.76796*#101-0.76796*#102]
G01 X6.0662Y12.5271Z[#100+-0.0200]
#102=[#512+0.22484*#506-0.22484*#512]
#101=[#513+0.22484*#507-0.22484*#513]
#100=[#102+0.77243*#101-0.77243*#102]
G01 X6.1018Y12.5136Z[#100+-0.0200]
#102=[#512+0.22656*#506-0.22656*#512]
#101=[#513+0.22656*#507-0.22656*#513]
#100=[#102+0.77587*#101-0.77587*#102]
G01 X6.1292Y12.5014Z[#100+-0.0200]
#102=[#512+0.23100*#506-0.23100*#512]
#101=[#513+0.23100*#507-0.23100*#513]
#100=[#102+0.78423*#101-0.78423*#102]
G01 X6.1958Y12.4700Z[#100+-0.0200]
#102=[#512+0.23291*#506-0.23291*#512]
#101=[#513+0.23291*#507-0.23291*#513]
#100=[#102+0.78758*#101-0.78758*#102]
G01 X6.2225Y12.4565Z[#100+-0.0200]
#102=[#512+0.23498*#506-0.23498*#512]
#101=[#513+0.23498*#507-0.23498*#513]
#100=[#102+0.79086*#101-0.79086*#102]
G01 X6.2486Y12.4418Z[#100+-0.0200]
#102=[#512+0.24034*#506-0.24034*#512]
#101=[#513+0.24034*#507-0.24034*#513]
#100=[#102+0.79878*#101-0.79878*#102]
G01 X6.3117Y12.4039Z[#100+-0.0200]
#102=[#512+0.24260*#506-0.24260*#512]
#101=[#513+0.24260*#507-0.24260*#513]
#100=[#102+0.80195*#101-0.80195*#102]
G01 X6.3370Y12.3879Z[#100+-0.0200]
#102=[#512+0.24503*#506-0.24503*#512]
#101=[#513+0.24503*#507-0.24503*#513]
#100=[#102+0.80503*#101-0.80503*#102]
G01 X6.3615Y12.3707Z[#100+-0.0200]
#102=[#512+0.25123*#506-0.25123*#512]
#101=[#513+0.25123*#507-0.25123*#513]
#100=[#102+0.81245*#101-0.81245*#102]
G01 X6.4206Y12.3268Z[#100+-0.0200]
#102=[#512+0.25383*#506-0.25383*#512]
#101=[#513+0.25383*#507-0.25383*#513]
#100=[#102+0.81541*#101-0.81541*#102]
G01 X6.4442Y12.3084Z[#100+-0.0200]
#102=[#512+0.25660*#506-0.25660*#512]
#101=[#513+0.25660*#507-0.25660*#513]
#100=[#102+0.81825*#101-0.81825*#102]
G01 X6.4668Y12.2888Z[#100+-0.0200]
#102=[#512+0.26358*#506-0.26358*#512]
#101=[#513+0.26358*#507-0.26358*#513]
#100=[#102+0.82510*#101-0.82510*#102]
G01 X6.5214Y12.2394Z[#100+-0.0200]
#102=[#512+0.26649*#506-0.26649*#512]
#101=[#513+0.26649*#507-0.26649*#513]
#100=[#102+0.82782*#101-0.82782*#102]
G01 X6.5431Y12.2188Z[#100+-0.0200]
#102=[#512+0.26955*#506-0.26955*#512]
#101=[#513+0.26955*#507-0.26955*#513]
#100=[#102+0.83041*#101-0.83041*#102]
G01 X6.5637Y12.1971Z[#100+-0.0200]
#102=[#512+0.27727*#506-0.27727*#512]
#101=[#513+0.27727*#507-0.27727*#513]
#100=[#102+0.83661*#101-0.83661*#102]
G01 X6.6131Y12.1425Z[#100+-0.0200]
#102=[#512+0.28046*#506-0.28046*#512]
#101=[#513+0.28046*#507-0.28046*#513]
#100=[#102+0.83907*#101-0.83907*#102]
G01 X6.6327Y12.1199Z[#100+-0.0200]
#102=[#512+0.28580*#506-0.28580*#512]
#101=[#513+0.28580*#507-0.28580*#513]
#100=[#102+0.84270*#101-0.84270*#102]
G01 X6.6616Y12.0821Z[#100+-0.0200]
G00 Z5.0000
G00 X7.7418Y12.9471
#102=[#512+0.16360*#506-0.16360*#512]
#101=[#513+0.16360*#507-0.16360*#513]
#100=[#102+0.97828*#101-0.97828*#102]
G01 Z[#100+-0.0200]
#102=[#513+0.16360*#507-0.16360*#513]
#101=[#514+0.16360*#508-0.16360*#514]
#100=[#102+0.02593*#101-0.02593*#102]
G01 X8.1214Y12.9471Z[#100+-0.0200]
#102=[#513+0.16302*#507-0.16302*#513]
#101=[#514+0.16302*#508-0.16302*#514]
#100=[#102+0.03639*#101-0.03639*#102]
G01 X8.2047Y12.9512Z[#100+-0.0200]
#102=[#513+0.16130*#507-0.16130*#513]
#101=[#514+0.16130*#508-0.16130*#514]
#100=[#102+0.04674*#101-0.04674*#102]
G01 X8.2872Y12.9634Z[#100+-0.0200]
#102=[#513+0.15861*#507-0.15861*#513]
#101=[#514+0.15861*#508-0.15861*#514]
#100=[#102+0.05631*#101-0.05631*#102]
G01 X8.3634Y12.9824Z[#100+-0.0200]
#102=[#513+0.15418*#507-0.15418*#513]
#101=[#514+0.15418*#508-0.15418*#514]
#100=[#102+0.06733*#101-0.06733*#102]
G01 X8.4512Y13.0138Z[#100+-0.0200]
#102=[#513+0.14941*#507-0.14941*#513]
#101=[#514+0.14941*#508-0.14941*#514]
#100=[#102+0.07623*#101-0.07623*#102]
G01 X8.5221Y13.0475Z[#100+-0.0200]
#102=[#513+0.14335*#507-0.14335*#513]
#101=[#514+0.14335*#508-0.14335*#514]
#100=[#102+0.08520*#101-0.08520*#102]
G01 X8.5936Y13.0904Z[#100+-0.0200]
#102=[#513+0.13635*#507-0.13635*#513]
#101=[#514+0.13635*#508-0.13635*#514]
#100=[#102+0.09361*#101-0.09361*#102]
G01 X8.6606Y13.1400Z[#100+-0.0200]
#102=[#513+0.12842*#507-0.12842*#513]
#101=[#514+0.12842*#508-0.12842*#514]
#100=[#102+0.10137*#101-0.10137*#102]
G01 X8.7224Y13.1961Z[#100+-0.0200]
#102=[#513+0.11969*#507-0.11969*#513]
#101=[#514+0.11969*#508-0.11969*#514]
#100=[#102+0.10841*#101-0.10841*#102]
G01 X8.7785Y13.2579Z[#100+-0.0200]
#102=[#513+0.11023*#507-0.11023*#513]
#101=[#514+0.11023*#508-0.11023*#514]
#100=[#102+0.11464*#101-0.11464*#102]
G01 X8.8281Y13.3249Z[#100+-0.0200]
#102=[#513+0.10012*#507-0.10012*#513]
#101=[#514+0.10012*#508-0.10012*#514]
#100=[#102+0.12002*#101-0.12002*#102]
G01 X8.8710Y13.3964Z[#100+-0.0200]
#102=[#513+0.08947*#507-0.08947*#513]
#101=[#514+0.08947*#508-0.08947*#514]
#100=[#102+0.12450*#101-0.12450*#102]
G01 X8.9067Y13.4718Z[#100+-0.0200]
#102=[#513+0.07837*#507-0.07837*#513]
#101=[#514+0.07837*#508-0.07837*#514]
#100=[#102+0.12803*#101-0.12803*#102]
G01 X8.9348Y13.5504Z[#100+-0.0200]
#102=[#513+0.06694*#507-0.06694*#513]
#101=[#514+0.06694*#508-0.06694*#514]
#100=[#102+0.13058*#101-0.13058*#102]
G01 X8.9551Y13.6313Z[#100+-0.0200]
#102=[#513+0.05529*#507-0.05529*#513]
#101=[#514+0.05529*#508-0.05529*#514]
#100=[#102+0.13211*#101-0.13211*#102]
G01 X8.9673Y13.7138Z[#100+-0.0200]
#102=[#513+0.04387*#507-0.04387*#513]
#101=[#514+0.04387*#508-0.04387*#514]
#100=[#102+0.13263*#101-0.13263*#102]
G01 X8.9714Y13.7946Z[#100+-0.0200]
#102=[#513+0.03175*#507-0.03175*#513]
#101=[#514+0.03175*#508-0.03175*#514]
#100=[#102+0.13211*#101-0.13211*#102]
G01 X8.9673Y13.8804Z[#100+-0.0200]
#102=[#513+0.02009*#507-0.02009*#513]
#101=[#514+0.02009*#508-0.02009*#514]
#100=[#102+0.13058*#101-0.13058*#102]
G01 X8.9551Y13.9629Z[#100+-0.0200]
#102=[#513+0.00867*#507-0.00867*#513]
#101=[#514+0.00867*#508-0.00867*#514]
#100=[#102+0.12803*#101-0.12803*#102]
G01 X8.9348Y14.0438Z[#100+-0.0200]
#102=[#519+0.99756*#513-0.99756*#519]
#101=[#520+0.99756*#514-0.99756*#520]
#100=[#102+0.12450*#101-0.12450*#102]
G01 X8.9067Y14.1224Z[#100+-0.0200]
#102=[#519+0.98691*#513-0.98691*#519]
#101=[#520+0.98691*#514-0.98691*#520]
#100=[#102+0.12002*#101-0.12002*#102]
G01 X8.8710Y14.1978Z[#100+-0.0200]
#102=[#519+0.97681*#513-0.97681*#519]
#101=[#520+0.97681*#514-0.97681*#520]
#100=[#102+0.11464*#101-0.11464*#102]
G01 X8.8281Y14.2693Z[#100+-0.0200]
#102=[#519+0.96734*#513-0.96734*#519]
#101=[#520+0.96734*#514-0.96734*#520]
#100=[#102+0.10841*#101-0.10841*#102]
G01 X8.7785Y14.3363Z[#100+-0.0200]
#102=[#519+0.95861*#513-0.95861*#519]
#101=[#520+0.95861*#514-0.95861*#520]
#100=[#102+0.10137*#101-0.10137*#102]
G01 X8.7224Y14.3981Z[#100+-0.0200]
#102=[#519+0.95069*#513-0.95069*#519]
#101=[#520+0.95069*#514-0.95069*#520]
#100=[#102+0.09361*#101-0.09361*#102]
G01 X8.6606Y14.4542Z[#100+-0.0200]
#102=[#519+0.94368*#513-0.94368*#519]
#101=[#520+0.94368*#514-0.94368*#520]
#100=[#102+0.08520*#101-0.08520*#102]
G01 X8.5936Y14.5038Z[#100+-0.0200]
#102=[#519+0.93762*#513-0.93762*#519]
#101=[#520+0.93762*#514-0.93762*#520]
#100=[#102+0.07623*#101-0.07623*#102]
G01 X8.5221Y14.5467Z[#100+-0.0200]
#102=[#519+0.93258*#513-0.93258*#519]
#101=[#520+0.93258*#514-0.93258*#520]
#100=[#102+0.06676*#101-0.06676*#102]
G01 X8.4467Y14.5824Z[#100+-0.0200]
#102=[#519+0.92861*#513-0.92861*#519]
#101=[#520+0.92861*#514-0.92861*#520]
#100=[#102+0.05690*#101-0.05690*#102]
G01 X8.3681Y14.6105Z[#100+-0.0200]
#102=[#519+0.92574*#513-0.92574*#519]
#101=[#520+0.92574*#514-0.92574*#520]
#100=[#102+0.04674*#101-0.04674*#102]
G01 X8.2872Y14.6308Z[#100+-0.0200]
#102=[#519+0.92402*#513-0.92402*#519]
#101=[#520+0.92402*#514-0.92402*#520]
#100=[#102+0.03639*#101-0.03639*#102]
G01 X8.2047Y14.6430Z[#100+-0.0200]
#102=[#519+0.92344*#513-0.92344*#519]
#101=[#520+0.92344*#514-0.92344*#520]
#100=[#102+0.02625*#101-0.02625*#102]
G01 X8.1239Y14.6471Z[#100+-0.0200]
#102=[#518+0.92344*#512-0.92344*#518]
#101=[#519+0.92344*#513-0.92344*#519]
#100=[#102+0.97828*#101-0.97828*#102]
G01 X7.7418Y14.6471Z[#100+-0.0200]
#102=[#518+0.92396*#512-0.92396*#518]
#101=[#519+0.92396*#513-0.92396*#519]
#100=[#102+0.96844*#101-0.96844*#102]
G01 X7.6634Y14.6434Z[#100+-0.0200]
#102=[#518+0.92574*#512-0.92574*#518]
#101=[#519+0.92574*#513-0.92574*#519]
#100=[#102+0.95747*#101-0.95747*#102]
G01 X7.5760Y14.6308Z[#100+-0.0200]
#102=[#518+0.92861*#512-0.92861*#518]
#101=[#519+0.92861*#513-0.92861*#519]
#100=[#102+0.94732*#101-0.94732*#102]
G01 X7.4951Y14.6105Z[#100+-0.0200]
#102=[#518+0.93258*#512-0.93258*#518]
#101=[#519+0.93258*#513-0.93258*#519]
#100=[#102+0.93745*#101-0.93745*#102]
G01 X7.4165Y14.5824Z[#100+-0.0200]
#102=[#518+0.93762*#512-0.93762*#518]
#101=[#519+0.93762*#513-0.93762*#519]
#100=[#102+0.92799*#101-0.92799*#102]
G01 X7.3411Y14.5467Z[#100+-0.0200]
#102=[#518+0.94368*#512-0.94368*#518]
#101=[#519+0.94368*#513-0.94368*#519]
#100=[#102+0.91901*#101-0.91901*#102]
G01 X7.2696Y14.5038Z[#100+-0.0200]
#102=[#518+0.95114*#512-0.95114*#518]
#101=[#519+0.95114*#513-0.95114*#519]
#100=[#102+0.91013*#101-0.91013*#102]
G01 X7.1988Y14.4510Z[#100+-0.0200]
#102=[#518+0.95911*#512-0.95911*#518]
#101=[#519+0.95911*#513-0.95911*#519]
#100=[#102+0.90242*#101-0.90242*#102]
G01 X7.1374Y14.3946Z[#100+-0.0200]
#102=[#518+0.96734*#512-0.96734*#518]
#101=[#519+0.96734*#513-0.96734*#519]
#100=[#102+0.89581*#101-0.89581*#102]
G01 X7.0847Y14.3363Z[#100+-0.0200]
#102=[#518+0.97624*#512-0.97624*#518]
#101=[#519+0.97624*#513-0.97624*#519]
#100=[#102+0.88993*#101-0.88993*#102]
G01 X7.0379Y14.2733Z[#100+-0.0200]
#102=[#518+0.98691*#512-0.98691*#518]
#101=[#519+0.98691*#513-0.98691*#519]
#100=[#102+0.88419*#101-0.88419*#102]
G01 X6.9922Y14.1978Z[#100+-0.0200]
#102=[#518+0.99756*#512-0.99756*#518]
#101=[#519+0.99756*#513-0.99756*#519]
#100=[#102+0.87971*#101-0.87971*#102]
G01 X6.9565Y14.1224Z[#100+-0.0200]
#102=[#512+0.00933*#506-0.00933*#512]
#101=[#513+0.00933*#507-0.00933*#513]
#100=[#102+0.87602*#101-0.87602*#102]
G01 X6.9271Y14.0391Z[#100+-0.0200]
#102=[#512+0.02009*#506-0.02009*#512]
#101=[#513+0.02009*#507-0.02009*#513]
#100=[#102+0.87364*#101-0.87364*#102]
G01 X6.9081Y13.9629Z[#100+-0.0200]
#102=[#512+0.03106*#506-0.03106*#512]
#101=[#513+0.03106*#507-0.03106*#513]
#100=[#102+0.87218*#101-0.87218*#102]
G01 X6.8965Y13.8853Z[#100+-0.0200]
#102=[#512+0.04352*#506-0.04352*#512]
#101=[#513+0.04352*#507-0.04352*#513]
#100=[#102+0.87159*#101-0.87159*#102]
G01 X6.8918Y13.7971Z[#100+-0.0200]
#102=[#512+0.05529*#506-0.05529*#512]
#101=[#513+0.05529*#507-0.05529*#513]
#100=[#102+0.87211*#101-0.87211*#102]
G01 X6.8959Y13.7138Z[#100+-0.0200]
#102=[#512+0.06762*#506-0.06762*#512]
#101=[#513+0.06762*#507-0.06762*#513]
#100=[#102+0.87378*#101-0.87378*#102]
G01 X6.9092Y13.6265Z[#100+-0.0200]
#102=[#512+0.07837*#506-0.07837*#512]
#101=[#513+0.07837*#507-0.07837*#513]
#100=[#102+0.87619*#101-0.87619*#102]
G01 X6.9284Y13.5504Z[#100+-0.0200]
#102=[#512+0.08882*#506-0.08882*#512]
#101=[#513+0.08882*#507-0.08882*#513]
#100=[#102+0.87949*#101-0.87949*#102]
G01 X6.9547Y13.4764Z[#100+-0.0200]
#102=[#512+0.10012*#506-0.10012*#512]
#101=[#513+0.10012*#507-0.10012*#513]
#100=[#102+0.88419*#101-0.88419*#102]
G01 X6.9922Y13.3964Z[#100+-0.0200]
#102=[#512+0.11023*#506-0.11023*#512]
#101=[#513+0.11023*#507-0.11023*#513]
#100=[#102+0.88958*#101-0.88958*#102]
G01 X7.0351Y13.3249Z[#100+-0.0200]
#102=[#512+0.11969*#506-0.11969*#512]
#101=[#513+0.11969*#507-0.11969*#513]
#100=[#102+0.89581*#101-0.89581*#102]
G01 X7.0847Y13.2579Z[#100+-0.0200]
#102=[#512+0.12890*#506-0.12890*#512]
#101=[#513+0.12890*#507-0.12890*#513]
#100=[#102+0.90329*#101-0.90329*#102]
G01 X7.1443Y13.1927Z[#100+-0.0200]
#102=[#512+0.13635*#506-0.13635*#512]
#101=[#513+0.13635*#507-0.13635*#513]
#100=[#102+0.91060*#101-0.91060*#102]
G01 X7.2026Y13.1400Z[#100+-0.0200]
#102=[#512+0.14296*#506-0.14296*#512]
#101=[#513+0.14296*#507-0.14296*#513]
#100=[#102+0.91851*#101-0.91851*#102]
G01 X7.2656Y13.0932Z[#100+-0.0200]
#102=[#512+0.14941*#506-0.14941*#512]
#101=[#513+0.14941*#507-0.14941*#513]
#100=[#102+0.92799*#101-0.92799*#102]
G01 X7.3411Y13.0475Z[#100+-0.0200]
#102=[#512+0.15471*#506-0.15471*#512]
#101=[#513+0.15471*#507-0.15471*#513]
#100=[#102+0.93803*#101-0.93803*#102]
G01 X7.4211Y13.0100Z[#100+-0.0200]
#102=[#512+0.15843*#506-0.15843*#512]
#101=[#513+0.15843*#507-0.15843*#513]
#100=[#102+0.94732*#101-0.94732*#102]
G01 X7.4951Y12.9837Z[#100+-0.0200]
#102=[#512+0.16114*#506-0.16114*#512]
#101=[#513+0.16114*#507-0.16114*#513]
#100=[#102+0.95687*#101-0.95687*#102]
G01 X7.5712Y12.9645Z[#100+-0.0200]
#102=[#512+0.16302*#506-0.16302*#512]
#101=[#513+0.16302*#507-0.16302*#513]
#100=[#102+0.96783*#101-0.96783*#102]
G01 X7.6585Y12.9512Z[#100+-0.0200]
#102=[#512+0.16360*#506-0.16360*#512]
#101=[#513+0.16360*#507-0.16360*#513]
#100=[#102+0.97828*#101-0.97828*#102]
G01 X7.7418Y12.9471Z[#100+-0.0200]
G00 Z5.0000
G00 X9.2913Y13.5808
#102=[#513+0.07407*#507-0.07407*#513]
#101=[#514+0.07407*#508-0.07407*#514]
#100=[#102+0.17278*#101-0.17278*#102]
G01 Z[#100+-0.0200]
#102=[#513+0.07929*#507-0.07929*#513]
#101=[#514+0.07929*#508-0.07929*#514]
#100=[#102+0.17184*#101-0.17184*#102]
G01 X9.2838Y13.5439Z[#100+-0.0200]
#102=[#513+0.08937*#507-0.08937*#513]
#101=[#514+0.08937*#508-0.08937*#514]
#100=[#102+0.16959*#101-0.16959*#102]
G01 X9.2659Y13.4725Z[#100+-0.0200]
#102=[#513+0.09231*#507-0.09231*#513]
#101=[#514+0.09231*#508-0.09231*#514]
#100=[#102+0.16888*#101-0.16888*#102]
G01 X9.2602Y13.4517Z[#100+-0.0200]
#102=[#513+0.09521*#507-0.09521*#513]
#101=[#514+0.09521*#508-0.09521*#514]
#100=[#102+0.16802*#101-0.16802*#102]
G01 X9.2534Y13.4312Z[#100+-0.0200]
#102=[#513+0.10785*#507-0.10785*#513]
#101=[#514+0.10785*#508-0.10785*#514]
#100=[#102+0.16393*#101-0.16393*#102]
G01 X9.2208Y13.3417Z[#100+-0.0200]
#102=[#513+0.11064*#507-0.11064*#513]
#101=[#514+0.11064*#508-0.11064*#514]
#100=[#102+0.16284*#101-0.16284*#102]
G01 X9.2121Y13.3220Z[#100+-0.0200]
#102=[#513+0.12277*#507-0.12277*#513]
#101=[#514+0.12277*#508-0.12277*#514]
#100=[#102+0.15767*#101-0.15767*#102]
G01 X9.1709Y13.2361Z[#100+-0.0200]
#102=[#513+0.13434*#507-0.13434*#513]
#101=[#514+0.13434*#508-0.13434*#514]
#100=[#102+0.15158*#101-0.15158*#102]
G01 X9.1224Y13.1542Z[#100+-0.0200]
#102=[#513+0.13691*#507-0.13691*#513]
#101=[#514+0.13691*#508-0.13691*#514]
#100=[#102+0.15012*#101-0.15012*#102]
G01 X9.1108Y13.1360Z[#100+-0.0200]
#102=[#513+0.13941*#507-0.13941*#513]
#101=[#514+0.13941*#508-0.13941*#514]
#100=[#102+0.14857*#101-0.14857*#102]
G01 X9.0984Y13.1183Z[#100+-0.0200]
#102=[#513+0.15016*#507-0.15016*#513]
#101=[#514+0.15016*#508-0.15016*#514]
#100=[#102+0.14140*#101-0.14140*#102]
G01 X9.0413Y13.0422Z[#100+-0.0200]
#102=[#513+0.15248*#507-0.15248*#513]
#101=[#514+0.15248*#508-0.15248*#514]
#100=[#102+0.13963*#101-0.13963*#102]
G01 X9.0272Y13.0258Z[#100+-0.0200]
#102=[#513+0.16240*#507-0.16240*#513]
#101=[#514+0.16240*#508-0.16240*#514]
#100=[#102+0.13156*#101-0.13156*#102]
G01 X8.9629Y12.9556Z[#100+-0.0200]
#102=[#513+0.17148*#507-0.17148*#513]
#101=[#514+0.17148*#508-0.17148*#514]
#100=[#102+0.12275*#101-0.12275*#102]
G01 X8.8927Y12.8913Z[#100+-0.0200]
#102=[#513+0.17347*#507-0.17347*#513]
#101=[#514+0.17347*#508-0.17347*#514]
#100=[#102+0.12069*#101-0.12069*#102]
G01 X8.8763Y12.8772Z[#100+-0.0200]
#102=[#513+0.18154*#507-0.18154*#513]
#101=[#514+0.18154*#508-0.18154*#514]
#100=[#102+0.11114*#101-0.11114*#102]
G01 X8.8002Y12.8201Z[#100+-0.0200]
#102=[#513+0.18329*#507-0.18329*#513]
#101=[#514+0.18329*#508-0.18329*#514]
#100=[#102+0.10891*#101-0.10891*#102]
G01 X8.7825Y12.8077Z[#100+-0.0200]
#102=[#513+0.18493*#507-0.18493*#513]
#101=[#514+0.18493*#508-0.18493*#514]
#100=[#102+0.10663*#101-0.10663*#102]
G01 X8.7643Y12.7961Z[#100+-0.0200]
#102=[#513+0.19178*#507-0.19178*#513]
#101=[#514+0.19178*#508-0.19178*#514]
#100=[#102+0.09635*#101-0.09635*#102]
G01 X8.6824Y12.7476Z[#100+-0.0200]
#102=[#513+0.19760*#507-0.19760*#513]
#101=[#514+0.19760*#508-0.19760*#514]
#100=[#102+0.08557*#101-0.08557*#102]
G01 X8.5965Y12.7064Z[#100+-0.0200]
#102=[#513+0.19883*#507-0.19883*#513]
#101=[#514+0.19883*#508-0.19883*#514]
#100=[#102+0.08309*#101-0.08309*#102]
G01 X8.5768Y12.6977Z[#100+-0.0200]
#102=[#513+0.19993*#507-0.19993*#513]
#101=[#514+0.19993*#508-0.19993*#514]
#100=[#102+0.08056*#101-0.08056*#102]
G01 X8.5566Y12.6899Z[#100+-0.0200]
#102=[#513+0.20440*#507-0.20440*#513]
#101=[#514+0.20440*#508-0.20440*#514]
#100=[#102+0.06929*#101-0.06929*#102]
G01 X8.4668Y12.6583Z[#100+-0.0200]
#102=[#513+0.20773*#507-0.20773*#513]
#101=[#514+0.20773*#508-0.20773*#514]
#100=[#102+0.05771*#101-0.05771*#102]
G01 X8.3746Y12.6347Z[#100+-0.0200]
#102=[#513+0.20840*#507-0.20840*#513]
#101=[#514+0.20840*#508-0.20840*#514]
#100=[#102+0.05508*#101-0.05508*#102]
G01 X8.3536Y12.6300Z[#100+-0.0200]
#102=[#513+0.20892*#507-0.20892*#513]
#101=[#514+0.20892*#508-0.20892*#514]
#100=[#102+0.05240*#101-0.05240*#102]
G01 X8.3323Y12.6263Z[#100+-0.0200]
#102=[#513+0.21083*#507-0.21083*#513]
#101=[#514+0.21083*#508-0.21083*#514]
#100=[#102+0.04057*#101-0.04057*#102]
G01 X8.2380Y12.6128Z[#100+-0.0200]
#102=[#513+0.21162*#507-0.21162*#513]
#101=[#514+0.21162*#508-0.21162*#514]
#100=[#102+0.02729*#101-0.02729*#102]
G01 X8.1322Y12.6072Z[#100+-0.0200]
#102=[#512+0.21163*#506-0.21163*#512]
#101=[#513+0.21163*#507-0.21163*#513]
#100=[#102+0.97828*#101-0.97828*#102]
G01 X7.7418Y12.6071Z[#100+-0.0200]
#102=[#512+0.21105*#506-0.21105*#512]
#101=[#513+0.21105*#507-0.21105*#513]
#100=[#102+0.96635*#101-0.96635*#102]
G01 X7.6467Y12.6112Z[#100+-0.0200]
#102=[#512+0.21083*#506-0.21083*#512]
#101=[#513+0.21083*#507-0.21083*#513]
#100=[#102+0.96365*#101-0.96365*#102]
G01 X7.6252Y12.6128Z[#100+-0.0200]
#102=[#512+0.21044*#506-0.21044*#512]
#101=[#513+0.21044*#507-0.21044*#513]
#100=[#102+0.96095*#101-0.96095*#102]
G01 X7.6037Y12.6155Z[#100+-0.0200]
#102=[#512+0.20892*#506-0.20892*#512]
#101=[#513+0.20892*#507-0.20892*#513]
#100=[#102+0.95181*#101-0.95181*#102]
G01 X7.5309Y12.6263Z[#100+-0.0200]
#102=[#512+0.20840*#506-0.20840*#512]
#101=[#513+0.20840*#507-0.20840*#513]
#100=[#102+0.94914*#101-0.94914*#102]
G01 X7.5096Y12.6300Z[#100+-0.0200]
#102=[#512+0.20773*#506-0.20773*#512]
#101=[#513+0.20773*#507-0.20773*#513]
#100=[#102+0.94650*#101-0.94650*#102]
G01 X7.4886Y12.6347Z[#100+-0.0200]
#102=[#512+0.20440*#506-0.20440*#512]
#101=[#513+0.20440*#507-0.20440*#513]
#100=[#102+0.93493*#101-0.93493*#102]
G01 X7.3964Y12.6583Z[#100+-0.0200]
#102=[#512+0.20344*#506-0.20344*#512]
#101=[#513+0.20344*#507-0.20344*#513]
#100=[#102+0.93236*#101-0.93236*#102]
G01 X7.3759Y12.6651Z[#100+-0.0200]
#102=[#512+0.19883*#506-0.19883*#512]
#101=[#513+0.19883*#507-0.19883*#513]
#100=[#102+0.92112*#101-0.92112*#102]
G01 X7.2864Y12.6977Z[#100+-0.0200]
#102=[#512+0.19315*#506-0.19315*#512]
#101=[#513+0.19315*#507-0.19315*#513]
#100=[#102+0.91029*#101-0.91029*#102]
G01 X7.2001Y12.7379Z[#100+-0.0200]
#102=[#512+0.19178*#506-0.19178*#512]
#101=[#513+0.19178*#507-0.19178*#513]
#100=[#102+0.90787*#101-0.90787*#102]
G01 X7.1808Y12.7476Z[#100+-0.0200]
#102=[#512+0.19027*#506-0.19027*#512]
#101=[#513+0.19027*#507-0.19027*#513]
#100=[#102+0.90551*#101-0.90551*#102]
G01 X7.1620Y12.7583Z[#100+-0.0200]
#102=[#512+0.18329*#506-0.18329*#512]
#101=[#513+0.18329*#507-0.18329*#513]
#100=[#102+0.89530*#101-0.89530*#102]
G01 X7.0807Y12.8077Z[#100+-0.0200]
#102=[#512+0.18154*#506-0.18154*#512]
#101=[#513+0.18154*#507-0.18154*#513]
#100=[#102+0.89308*#101-0.89308*#102]
G01 X7.0630Y12.8201Z[#100+-0.0200]
#102=[#512+0.17347*#506-0.17347*#512]
#101=[#513+0.17347*#507-0.17347*#513]
#100=[#102+0.88353*#101-0.88353*#102]
G01 X6.9869Y12.8772Z[#100+-0.0200]
#102=[#512+0.16449*#506-0.16449*#512]
#101=[#513+0.16449*#507-0.16449*#513]
#100=[#102+0.87463*#101-0.87463*#102]
G01 X6.9160Y12.9408Z[#100+-0.0200]
#102=[#512+0.16240*#506-0.16240*#512]
#101=[#513+0.16240*#507-0.16240*#513]
#100=[#102+0.87266*#101-0.87266*#102]
G01 X6.9003Y12.9556Z[#100+-0.0200]
#102=[#512+0.16018*#506-0.16018*#512]
#101=[#513+0.16018*#507-0.16018*#513]
#100=[#102+0.87080*#101-0.87080*#102]
G01 X6.8855Y12.9713Z[#100+-0.0200]
#102=[#512+0.15016*#506-0.15016*#512]
#101=[#513+0.15016*#507-0.15016*#513]
#100=[#102+0.86282*#101-0.86282*#102]
G01 X6.8219Y13.0422Z[#100+-0.0200]
#102=[#512+0.14776*#506-0.14776*#512]
#101=[#513+0.14776*#507-0.14776*#513]
#100=[#102+0.86115*#101-0.86115*#102]
G01 X6.8086Y13.0592Z[#100+-0.0200]
#102=[#512+0.13691*#506-0.13691*#512]
#101=[#513+0.13691*#507-0.13691*#513]
#100=[#102+0.85409*#101-0.85409*#102]
G01 X6.7524Y13.1360Z[#100+-0.0200]
#102=[#512+0.12543*#506-0.12543*#512]
#101=[#513+0.12543*#507-0.12543*#513]
#100=[#102+0.84789*#101-0.84789*#102]
G01 X6.7030Y13.2173Z[#100+-0.0200]
#102=[#512+0.12277*#506-0.12277*#512]
#101=[#513+0.12277*#507-0.12277*#513]
#100=[#102+0.84655*#101-0.84655*#102]
G01 X6.6923Y13.2361Z[#100+-0.0200]
#102=[#512+0.11377*#506-0.11377*#512]
#101=[#513+0.11377*#507-0.11377*#513]
#100=[#102+0.84270*#101-0.84270*#102]
G01 X6.6616Y13.2998Z[#100+-0.0200]
#102=[#512+0.12277*#506-0.12277*#512]
#101=[#513+0.12277*#507-0.12277*#513]
#100=[#102+0.83884*#101-0.83884*#102]
G01 X6.6309Y13.2361Z[#100+-0.0200]
#102=[#512+0.12543*#506-0.12543*#512]
#101=[#513+0.12543*#507-0.12543*#513]
#100=[#102+0.83750*#101-0.83750*#102]
G01 X6.6202Y13.2173Z[#100+-0.0200]
#102=[#512+0.13691*#506-0.13691*#512]
#101=[#513+0.13691*#507-0.13691*#513]
#100=[#102+0.83130*#101-0.83130*#102]
G01 X6.5708Y13.1360Z[#100+-0.0200]
#102=[#512+0.14776*#506-0.14776*#512]
#101=[#513+0.14776*#507-0.14776*#513]
#100=[#102+0.82425*#101-0.82425*#102]
G01 X6.5146Y13.0592Z[#100+-0.0200]
#102=[#512+0.15016*#506-0.15016*#512]
#101=[#513+0.15016*#507-0.15016*#513]
#100=[#102+0.82258*#101-0.82258*#102]
G01 X6.5013Y13.0422Z[#100+-0.0200]
#102=[#512+0.16018*#506-0.16018*#512]
#101=[#513+0.16018*#507-0.16018*#513]
#100=[#102+0.81459*#101-0.81459*#102]
G01 X6.4377Y12.9713Z[#100+-0.0200]
#102=[#512+0.16240*#506-0.16240*#512]
#101=[#513+0.16240*#507-0.16240*#513]
#100=[#102+0.81274*#101-0.81274*#102]
G01 X6.4229Y12.9556Z[#100+-0.0200]
#102=[#512+0.16449*#506-0.16449*#512]
#101=[#513+0.16449*#507-0.16449*#513]
#100=[#102+0.81076*#101-0.81076*#102]
G01 X6.4072Y12.9408Z[#100+-0.0200]
#102=[#512+0.17347*#506-0.17347*#512]
#101=[#513+0.17347*#507-0.17347*#513]
#100=[#102+0.80187*#101-0.80187*#102]
G01 X6.3363Y12.8772Z[#100+-0.0200]
#102=[#512+0.18154*#506-0.18154*#512]
#101=[#513+0.18154*#507-0.18154*#513]
#100=[#102+0.79231*#101-0.79231*#102]
G01 X6.2602Y12.8201Z[#100+-0.0200]
#102=[#512+0.18329*#506-0.18329*#512]
#101=[#513+0.18329*#507-0.18329*#513]
#100=[#102+0.79009*#101-0.79009*#102]
G01 X6.2425Y12.8077Z[#100+-0.0200]
#102=[#512+0.18493*#506-0.18493*#512]
#101=[#513+0.18493*#507-0.18493*#513]
#100=[#102+0.78781*#101-0.78781*#102]
G01 X6.2243Y12.7961Z[#100+-0.0200]
#102=[#512+0.19027*#506-0.19027*#512]
#101=[#513+0.19027*#507-0.19027*#513]
#100=[#102+0.77989*#101-0.77989*#102]
G01 X6.1612Y12.7583Z[#100+-0.0200]
#102=[#512+0.19178*#506-0.19178*#512]
#101=[#513+0.19178*#507-0.19178*#513]
#100=[#102+0.77753*#101-0.77753*#102]
G01 X6.1424Y12.7476Z[#100+-0.0200]
#102=[#512+0.19315*#506-0.19315*#512]
#101=[#513+0.19315*#507-0.19315*#513]
#100=[#102+0.77510*#101-0.77510*#102]
G01 X6.1231Y12.7379Z[#100+-0.0200]
#102=[#512+0.19883*#506-0.19883*#512]
#101=[#513+0.19883*#507-0.19883*#513]
#100=[#102+0.76427*#101-0.76427*#102]
G01 X6.0368Y12.6977Z[#100+-0.0200]
#102=[#512+0.20344*#506-0.20344*#512]
#101=[#513+0.20344*#507-0.20344*#513]
#100=[#102+0.75304*#101-0.75304*#102]
G01 X5.9473Y12.6651Z[#100+-0.0200]
#102=[#512+0.20440*#506-0.20440*#512]
#101=[#513+0.20440*#507-0.20440*#513]
#100=[#102+0.75046*#101-0.75046*#102]
G01 X5.9268Y12.6583Z[#100+-0.0200]
#102=[#512+0.20520*#506-0.20520*#512]
#101=[#513+0.20520*#507-0.20520*#513]
#100=[#102+0.74785*#101-0.74785*#102]
G01 X5.9060Y12.6526Z[#100+-0.0200]
#102=[#512+0.20840*#506-0.20840*#512]
#101=[#513+0.20840*#507-0.20840*#513]
#100=[#102+0.73626*#101-0.73626*#102]
G01 X5.8136Y12.6300Z[#100+-0.0200]
#102=[#512+0.21044*#506-0.21044*#512]
#101=[#513+0.21044*#507-0.21044*#513]
#100=[#102+0.72444*#101-0.72444*#102]
G01 X5.7195Y12.6155Z[#100+-0.0200]
#102=[#512+0.21083*#506-0.21083*#512]
#101=[#513+0.21083*#507-0.21083*#513]
#100=[#102+0.72175*#101-0.72175*#102]
G01 X5.6980Y12.6128Z[#100+-0.0200]
#102=[#512+0.21105*#506-0.21105*#512]
#101=[#513+0.21105*#507-0.21105*#513]
#100=[#102+0.71905*#101-0.71905*#102]
G01 X5.6765Y12.6112Z[#100+-0.0200]
#102=[#512+0.21162*#506-0.21162*#512]
#101=[#513+0.21162*#507-0.21162*#513]
#100=[#102+0.70847*#101-0.70847*#102]
G01 X5.5922Y12.6072Z[#100+-0.0200]
#102=[#512+0.21163*#506-0.21163*#512]
#101=[#513+0.21163*#507-0.21163*#513]
#100=[#102+0.65935*#101-0.65935*#102]
G01 X5.2009Y12.6071Z[#100+-0.0200]
#102=[#512+0.21508*#506-0.21508*#512]
#101=[#513+0.21508*#507-0.21508*#513]
#100=[#102+0.65974*#101-0.65974*#102]
G01 X5.2040Y12.5827Z[#100+-0.0200]
#102=[#512+0.21813*#506-0.21813*#512]
#101=[#513+0.21813*#507-0.21813*#513]
#100=[#102+0.65994*#101-0.65994*#102]
G01 X5.2056Y12.5611Z[#100+-0.0200]
#102=[#512+0.22293*#506-0.22293*#512]
#101=[#513+0.22293*#507-0.22293*#513]
#100=[#102+0.66008*#101-0.66008*#102]
G01 X5.2067Y12.5271Z[#100+-0.0200]
#102=[#512+0.22774*#506-0.22774*#512]
#101=[#513+0.22774*#507-0.22774*#513]
#100=[#102+0.65994*#101-0.65994*#102]
G01 X5.2056Y12.4931Z[#100+-0.0200]
#102=[#512+0.23079*#506-0.23079*#512]
#101=[#513+0.23079*#507-0.23079*#513]
#100=[#102+0.65974*#101-0.65974*#102]
G01 X5.2040Y12.4715Z[#100+-0.0200]
#102=[#512+0.23423*#506-0.23423*#512]
#101=[#513+0.23423*#507-0.23423*#513]
#100=[#102+0.65935*#101-0.65935*#102]
G01 X5.2009Y12.4471Z[#100+-0.0200]
#102=[#512+0.23425*#506-0.23425*#512]
#101=[#513+0.23425*#507-0.23425*#513]
#100=[#102+0.70847*#101-0.70847*#102]
G01 X5.5922Y12.4470Z[#100+-0.0200]
#102=[#512+0.23504*#506-0.23504*#512]
#101=[#513+0.23504*#507-0.23504*#513]
#100=[#102+0.72175*#101-0.72175*#102]
G01 X5.6980Y12.4414Z[#100+-0.0200]
#102=[#512+0.23695*#506-0.23695*#512]
#101=[#513+0.23695*#507-0.23695*#513]
#100=[#102+0.73358*#101-0.73358*#102]
G01 X5.7923Y12.4279Z[#100+-0.0200]
#102=[#512+0.23747*#506-0.23747*#512]
#101=[#513+0.23747*#507-0.23747*#513]
#100=[#102+0.73626*#101-0.73626*#102]
G01 X5.8136Y12.4242Z[#100+-0.0200]
#102=[#512+0.23813*#506-0.23813*#512]
#101=[#513+0.23813*#507-0.23813*#513]
#100=[#102+0.73889*#101-0.73889*#102]
G01 X5.8346Y12.4195Z[#100+-0.0200]
#102=[#512+0.24066*#506-0.24066*#512]
#101=[#513+0.24066*#507-0.24066*#513]
#100=[#102+0.74785*#101-0.74785*#102]
G01 X5.9060Y12.4016Z[#100+-0.0200]
#102=[#512+0.24147*#506-0.24147*#512]
#101=[#513+0.24147*#507-0.24147*#513]
#100=[#102+0.75046*#101-0.75046*#102]
G01 X5.9268Y12.3959Z[#100+-0.0200]
#102=[#512+0.24243*#506-0.24243*#512]
#101=[#513+0.24243*#507-0.24243*#513]
#100=[#102+0.75304*#101-0.75304*#102]
G01 X5.9473Y12.3891Z[#100+-0.0200]
#102=[#512+0.24703*#506-0.24703*#512]
#101=[#513+0.24703*#507-0.24703*#513]
#100=[#102+0.76427*#101-0.76427*#102]
G01 X6.0368Y12.3565Z[#100+-0.0200]
#102=[#512+0.25271*#506-0.25271*#512]
#101=[#513+0.25271*#507-0.25271*#513]
#100=[#102+0.77510*#101-0.77510*#102]
G01 X6.1231Y12.3163Z[#100+-0.0200]
#102=[#512+0.25408*#506-0.25408*#512]
#101=[#513+0.25408*#507-0.25408*#513]
#100=[#102+0.77753*#101-0.77753*#102]
G01 X6.1424Y12.3066Z[#100+-0.0200]
#102=[#512+0.25559*#506-0.25559*#512]
#101=[#513+0.25559*#507-0.25559*#513]
#100=[#102+0.77989*#101-0.77989*#102]
G01 X6.1612Y12.2959Z[#100+-0.0200]
#102=[#512+0.26257*#506-0.26257*#512]
#101=[#513+0.26257*#507-0.26257*#513]
#100=[#102+0.79009*#101-0.79009*#102]
G01 X6.2425Y12.2465Z[#100+-0.0200]
#102=[#512+0.27051*#506-0.27051*#512]
#101=[#513+0.27051*#507-0.27051*#513]
#100=[#102+0.79973*#101-0.79973*#102]
G01 X6.3193Y12.1903Z[#100+-0.0200]
#102=[#512+0.27239*#506-0.27239*#512]
#101=[#513+0.27239*#507-0.27239*#513]
#100=[#102+0.80187*#101-0.80187*#102]
G01 X6.3363Y12.1770Z[#100+-0.0200]
#102=[#512+0.27438*#506-0.27438*#512]
#101=[#513+0.27438*#507-0.27438*#513]
#100=[#102+0.80392*#101-0.80392*#102]
G01 X6.3527Y12.1629Z[#100+-0.0200]
#102=[#512+0.28138*#506-0.28138*#512]
#101=[#513+0.28138*#507-0.28138*#513]
#100=[#102+0.81076*#101-0.81076*#102]
G01 X6.4072Y12.1134Z[#100+-0.0200]
#102=[#512+0.28347*#506-0.28347*#512]
#101=[#513+0.28347*#507-0.28347*#513]
#100=[#102+0.81274*#101-0.81274*#102]
G01 X6.4229Y12.0986Z[#100+-0.0200]
#102=[#512+0.28568*#506-0.28568*#512]
#101=[#513+0.28568*#507-0.28568*#513]
#100=[#102+0.81459*#101-0.81459*#102]
G01 X6.4377Y12.0829Z[#100+-0.0200]
#102=[#512+0.29570*#506-0.29570*#512]
#101=[#513+0.29570*#507-0.29570*#513]
#100=[#102+0.82258*#101-0.82258*#102]
G01 X6.5013Y12.0120Z[#100+-0.0200]
#102=[#512+0.29810*#506-0.29810*#512]
#101=[#513+0.29810*#507-0.29810*#513]
#100=[#102+0.82425*#101-0.82425*#102]
G01 X6.5146Y11.9950Z[#100+-0.0200]
#102=[#512+0.30895*#506-0.30895*#512]
#101=[#513+0.30895*#507-0.30895*#513]
#100=[#102+0.83130*#101-0.83130*#102]
G01 X6.5708Y11.9182Z[#100+-0.0200]
#102=[#512+0.32044*#506-0.32044*#512]
#101=[#513+0.32044*#507-0.32044*#513]
#100=[#102+0.83750*#101-0.83750*#102]
G01 X6.6202Y11.8369Z[#100+-0.0200]
#102=[#512+0.32309*#506-0.32309*#512]
#101=[#513+0.32309*#507-0.32309*#513]
#100=[#102+0.83884*#101-0.83884*#102]
G01 X6.6309Y11.8181Z[#100+-0.0200]
#102=[#512+0.33209*#506-0.33209*#512]
#101=[#513+0.33209*#507-0.33209*#513]
#100=[#102+0.84270*#101-0.84270*#102]
G01 X6.6616Y11.7544Z[#100+-0.0200]
#102=[#512+0.32309*#506-0.32309*#512]
#101=[#513+0.32309*#507-0.32309*#513]
#100=[#102+0.84655*#101-0.84655*#102]
G01 X6.6923Y11.8181Z[#100+-0.0200]
#102=[#512+0.31152*#506-0.31152*#512]
#101=[#513+0.31152*#507-0.31152*#513]
#100=[#102+0.85264*#101-0.85264*#102]
G01 X6.7408Y11.9000Z[#100+-0.0200]
#102=[#512+0.30895*#506-0.30895*#512]
#101=[#513+0.30895*#507-0.30895*#513]
#100=[#102+0.85409*#101-0.85409*#102]
G01 X6.7524Y11.9182Z[#100+-0.0200]
#102=[#512+0.30645*#506-0.30645*#512]
#101=[#513+0.30645*#507-0.30645*#513]
#100=[#102+0.85565*#101-0.85565*#102]
G01 X6.7648Y11.9359Z[#100+-0.0200]
#102=[#512+0.29810*#506-0.29810*#512]
#101=[#513+0.29810*#507-0.29810*#513]
#100=[#102+0.86115*#101-0.86115*#102]
G01 X6.8086Y11.9950Z[#100+-0.0200]
#102=[#512+0.29570*#506-0.29570*#512]
#101=[#513+0.29570*#507-0.29570*#513]
#100=[#102+0.86282*#101-0.86282*#102]
G01 X6.8219Y12.0120Z[#100+-0.0200]
#102=[#512+0.29338*#506-0.29338*#512]
#101=[#513+0.29338*#507-0.29338*#513]
#100=[#102+0.86459*#101-0.86459*#102]
G01 X6.8360Y12.0284Z[#100+-0.0200]
#102=[#512+0.28347*#506-0.28347*#512]
#101=[#513+0.28347*#507-0.28347*#513]
#100=[#102+0.87266*#101-0.87266*#102]
G01 X6.9003Y12.0986Z[#100+-0.0200]
#102=[#512+0.27438*#506-0.27438*#512]
#101=[#513+0.27438*#507-0.27438*#513]
#100=[#102+0.88147*#101-0.88147*#102]
G01 X6.9705Y12.1629Z[#100+-0.0200]
#102=[#512+0.27239*#506-0.27239*#512]
#101=[#513+0.27239*#507-0.27239*#513]
#100=[#102+0.88353*#101-0.88353*#102]
G01 X6.9869Y12.1770Z[#100+-0.0200]
#102=[#512+0.27051*#506-0.27051*#512]
#101=[#513+0.27051*#507-0.27051*#513]
#100=[#102+0.88566*#101-0.88566*#102]
G01 X7.0039Y12.1903Z[#100+-0.0200]
#102=[#512+0.26257*#506-0.26257*#512]
#101=[#513+0.26257*#507-0.26257*#513]
#100=[#102+0.89530*#101-0.89530*#102]
G01 X7.0807Y12.2465Z[#100+-0.0200]
#102=[#512+0.25559*#506-0.25559*#512]
#101=[#513+0.25559*#507-0.25559*#513]
#100=[#102+0.90551*#101-0.90551*#102]
G01 X7.1620Y12.2959Z[#100+-0.0200]
#102=[#512+0.25408*#506-0.25408*#512]
#101=[#513+0.25408*#507-0.25408*#513]
#100=[#102+0.90787*#101-0.90787*#102]
G01 X7.1808Y12.3066Z[#100+-0.0200]
#102=[#512+0.25271*#506-0.25271*#512]
#101=[#513+0.25271*#507-0.25271*#513]
#100=[#102+0.91029*#101-0.91029*#102]
G01 X7.2001Y12.3163Z[#100+-0.0200]
#102=[#512+0.24703*#506-0.24703*#512]
#101=[#513+0.24703*#507-0.24703*#513]
#100=[#102+0.92112*#101-0.92112*#102]
G01 X7.2864Y12.3565Z[#100+-0.0200]
#102=[#512+0.24243*#506-0.24243*#512]
#101=[#513+0.24243*#507-0.24243*#513]
#100=[#102+0.93236*#101-0.93236*#102]
G01 X7.3759Y12.3891Z[#100+-0.0200]
#102=[#512+0.24147*#506-0.24147*#512]
#101=[#513+0.24147*#507-0.24147*#513]
#100=[#102+0.93493*#101-0.93493*#102]
G01 X7.3964Y12.3959Z[#100+-0.0200]
#102=[#512+0.24066*#506-0.24066*#512]
#101=[#513+0.24066*#507-0.24066*#513]
#100=[#102+0.93754*#101-0.93754*#102]
G01 X7.4172Y12.4016Z[#100+-0.0200]
#102=[#512+0.23813*#506-0.23813*#512]
#101=[#513+0.23813*#507-0.23813*#513]
#100=[#102+0.94650*#101-0.94650*#102]
G01 X7.4886Y12.4195Z[#100+-0.0200]
#102=[#512+0.23747*#506-0.23747*#512]
#101=[#513+0.23747*#507-0.23747*#513]
#100=[#102+0.94914*#101-0.94914*#102]
G01 X7.5096Y12.4242Z[#100+-0.0200]
#102=[#512+0.23695*#506-0.23695*#512]
#101=[#513+0.23695*#507-0.23695*#513]
#100=[#102+0.95181*#101-0.95181*#102]
G01 X7.5309Y12.4279Z[#100+-0.0200]
#102=[#512+0.23504*#506-0.23504*#512]
#101=[#513+0.23504*#507-0.23504*#513]
#100=[#102+0.96365*#101-0.96365*#102]
G01 X7.6252Y12.4414Z[#100+-0.0200]
#102=[#512+0.23481*#506-0.23481*#512]
#101=[#513+0.23481*#507-0.23481*#513]
#100=[#102+0.96635*#101-0.96635*#102]
G01 X7.6467Y12.4430Z[#100+-0.0200]
#102=[#512+0.23423*#506-0.23423*#512]
#101=[#513+0.23423*#507-0.23423*#513]
#100=[#102+0.97828*#101-0.97828*#102]
G01 X7.7418Y12.4471Z[#100+-0.0200]
#102=[#513+0.23423*#507-0.23423*#513]
#101=[#514+0.23423*#508-0.23423*#514]
#100=[#102+0.02593*#101-0.02593*#102]
G01 X8.1214Y12.4471Z[#100+-0.0200]
#102=[#513+0.23481*#507-0.23481*#513]
#101=[#514+0.23481*#508-0.23481*#514]
#100=[#102+0.03787*#101-0.03787*#102]
G01 X8.2165Y12.4430Z[#100+-0.0200]
#102=[#513+0.23504*#507-0.23504*#513]
#101=[#514+0.23504*#508-0.23504*#514]
#100=[#102+0.04057*#101-0.04057*#102]
G01 X8.2380Y12.4414Z[#100+-0.0200]
#102=[#513+0.23542*#507-0.23542*#513]
#101=[#514+0.23542*#508-0.23542*#514]
#100=[#102+0.04327*#101-0.04327*#102]
G01 X8.2595Y12.4387Z[#100+-0.0200]
#102=[#513+0.23747*#507-0.23747*#513]
#101=[#514+0.23747*#508-0.23747*#514]
#100=[#102+0.05508*#101-0.05508*#102]
G01 X8.3536Y12.4242Z[#100+-0.0200]
#102=[#513+0.24066*#507-0.24066*#513]
#101=[#514+0.24066*#508-0.24066*#514]
#100=[#102+0.06668*#101-0.06668*#102]
G01 X8.4460Y12.4016Z[#100+-0.0200]
#102=[#513+0.24147*#507-0.24147*#513]
#101=[#514+0.24147*#508-0.24147*#514]
#100=[#102+0.06929*#101-0.06929*#102]
G01 X8.4668Y12.3959Z[#100+-0.0200]
#102=[#513+0.24593*#507-0.24593*#513]
#101=[#514+0.24593*#508-0.24593*#514]
#100=[#102+0.08056*#101-0.08056*#102]
G01 X8.5566Y12.3643Z[#100+-0.0200]
#102=[#513+0.24703*#507-0.24703*#513]
#101=[#514+0.24703*#508-0.24703*#514]
#100=[#102+0.08309*#101-0.08309*#102]
G01 X8.5768Y12.3565Z[#100+-0.0200]
#102=[#513+0.25271*#507-0.25271*#513]
#101=[#514+0.25271*#508-0.25271*#514]
#100=[#102+0.09393*#101-0.09393*#102]
G01 X8.6631Y12.3163Z[#100+-0.0200]
#102=[#513+0.25408*#507-0.25408*#513]
#101=[#514+0.25408*#508-0.25408*#514]
#100=[#102+0.09635*#101-0.09635*#102]
G01 X8.6824Y12.3066Z[#100+-0.0200]
#102=[#513+0.25559*#507-0.25559*#513]
#101=[#514+0.25559*#508-0.25559*#514]
#100=[#102+0.09871*#101-0.09871*#102]
G01 X8.7012Y12.2959Z[#100+-0.0200]
#102=[#513+0.26257*#507-0.26257*#513]
#101=[#514+0.26257*#508-0.26257*#514]
#100=[#102+0.10891*#101-0.10891*#102]
G01 X8.7825Y12.2465Z[#100+-0.0200]
#102=[#513+0.27051*#507-0.27051*#513]
#101=[#514+0.27051*#508-0.27051*#514]
#100=[#102+0.11855*#101-0.11855*#102]
G01 X8.8593Y12.1903Z[#100+-0.0200]
#102=[#513+0.27239*#507-0.27239*#513]
#101=[#514+0.27239*#508-0.27239*#514]
#100=[#102+0.12069*#101-0.12069*#102]
G01 X8.8763Y12.1770Z[#100+-0.0200]
#102=[#513+0.27438*#507-0.27438*#513]
#101=[#514+0.27438*#508-0.27438*#514]
#100=[#102+0.12275*#101-0.12275*#102]
G01 X8.8927Y12.1629Z[#100+-0.0200]
#102=[#513+0.28347*#507-0.28347*#513]
#101=[#514+0.28347*#508-0.28347*#514]
#100=[#102+0.13156*#101-0.13156*#102]
G01 X8.9629Y12.0986Z[#100+-0.0200]
#102=[#513+0.29338*#507-0.29338*#513]
#101=[#514+0.29338*#508-0.29338*#514]
#100=[#102+0.13963*#101-0.13963*#102]
G01 X9.0272Y12.0284Z[#100+-0.0200]
#102=[#513+0.29570*#507-0.29570*#513]
#101=[#514+0.29570*#508-0.29570*#514]
#100=[#102+0.14140*#101-0.14140*#102]
G01 X9.0413Y12.0120Z[#100+-0.0200]
#102=[#513+0.29810*#507-0.29810*#513]
#101=[#514+0.29810*#508-0.29810*#514]
#100=[#102+0.14307*#101-0.14307*#102]
G01 X9.0546Y11.9950Z[#100+-0.0200]
#102=[#513+0.30895*#507-0.30895*#513]
#101=[#514+0.30895*#508-0.30895*#514]
#100=[#102+0.15012*#101-0.15012*#102]
G01 X9.1108Y11.9182Z[#100+-0.0200]
#102=[#513+0.32044*#507-0.32044*#513]
#101=[#514+0.32044*#508-0.32044*#514]
#100=[#102+0.15632*#101-0.15632*#102]
G01 X9.1602Y11.8369Z[#100+-0.0200]
#102=[#513+0.32309*#507-0.32309*#513]
#101=[#514+0.32309*#508-0.32309*#514]
#100=[#102+0.15767*#101-0.15767*#102]
G01 X9.1709Y11.8181Z[#100+-0.0200]
#102=[#513+0.32582*#507-0.32582*#513]
#101=[#514+0.32582*#508-0.32582*#514]
#100=[#102+0.15888*#101-0.15888*#102]
G01 X9.1806Y11.7988Z[#100+-0.0200]
#102=[#513+0.33801*#507-0.33801*#513]
#101=[#514+0.33801*#508-0.33801*#514]
#100=[#102+0.16393*#101-0.16393*#102]
G01 X9.2208Y11.7125Z[#100+-0.0200]
#102=[#513+0.35066*#507-0.35066*#513]
#101=[#514+0.35066*#508-0.35066*#514]
#100=[#102+0.16802*#101-0.16802*#102]
G01 X9.2534Y11.6230Z[#100+-0.0200]
#102=[#513+0.35355*#507-0.35355*#513]
#101=[#514+0.35355*#508-0.35355*#514]
#100=[#102+0.16888*#101-0.16888*#102]
G01 X9.2602Y11.6025Z[#100+-0.0200]
#102=[#513+0.35649*#507-0.35649*#513]
#101=[#514+0.35649*#508-0.35649*#514]
#100=[#102+0.16959*#101-0.16959*#102]
G01 X9.2659Y11.5817Z[#100+-0.0200]
#102=[#513+0.36658*#507-0.36658*#513]
#101=[#514+0.36658*#508-0.36658*#514]
#100=[#102+0.17184*#101-0.17184*#102]
G01 X9.2838Y11.5103Z[#100+-0.0200]
#102=[#513+0.37179*#507-0.37179*#513]
#101=[#514+0.37179*#508-0.37179*#514]
#100=[#102+0.17278*#101-0.17278*#102]
G01 X9.2913Y11.4734Z[#100+-0.0200]
#102=[#513+0.37025*#507-0.37025*#513]
#101=[#514+0.37025*#508-0.37025*#514]
#100=[#102+0.17732*#101-0.17732*#102]
G01 X9.3275Y11.4843Z[#100+-0.0200]
#102=[#513+0.36915*#507-0.36915*#513]
#101=[#514+0.36915*#508-0.36915*#514]
#100=[#102+0.18149*#101-0.18149*#102]
G01 X9.3607Y11.4921Z[#100+-0.0200]
#102=[#513+0.36837*#507-0.36837*#513]
#101=[#514+0.36837*#508-0.36837*#514]
#100=[#102+0.18571*#101-0.18571*#102]
G01 X9.3943Y11.4976Z[#100+-0.0200]
#102=[#513+0.36800*#507-0.36800*#513]
#101=[#514+0.36800*#508-0.36800*#514]
#100=[#102+0.18839*#101-0.18839*#102]
G01 X9.4157Y11.5002Z[#100+-0.0200]
#102=[#513+0.36769*#507-0.36769*#513]
#101=[#514+0.36769*#508-0.36769*#514]
#100=[#102+0.19266*#101-0.19266*#102]
G01 X9.4497Y11.5024Z[#100+-0.0200]
#102=[#513+0.36762*#507-0.36762*#513]
#101=[#514+0.36762*#508-0.36762*#514]
#100=[#102+0.19537*#101-0.19537*#102]
G01 X9.4713Y11.5029Z[#100+-0.0200]
#102=[#513+0.36778*#507-0.36778*#513]
#101=[#514+0.36778*#508-0.36778*#514]
#100=[#102+0.19964*#101-0.19964*#102]
G01 X9.5053Y11.5018Z[#100+-0.0200]
#102=[#513+0.36800*#507-0.36800*#513]
#101=[#514+0.36800*#508-0.36800*#514]
#100=[#102+0.20235*#101-0.20235*#102]
G01 X9.5269Y11.5002Z[#100+-0.0200]
#102=[#513+0.36864*#507-0.36864*#513]
#101=[#514+0.36864*#508-0.36864*#514]
#100=[#102+0.20658*#101-0.20658*#102]
G01 X9.5606Y11.4957Z[#100+-0.0200]
#102=[#513+0.36915*#507-0.36915*#513]
#101=[#514+0.36915*#508-0.36915*#514]
#100=[#102+0.20926*#101-0.20926*#102]
G01 X9.5819Y11.4921Z[#100+-0.0200]
#102=[#513+0.37025*#507-0.37025*#513]
#101=[#514+0.37025*#508-0.37025*#514]
#100=[#102+0.21342*#101-0.21342*#102]
G01 X9.6151Y11.4843Z[#100+-0.0200]
#102=[#513+0.37107*#507-0.37107*#513]
#101=[#514+0.37107*#508-0.37107*#514]
#100=[#102+0.21603*#101-0.21603*#102]
G01 X9.6359Y11.4785Z[#100+-0.0200]
#102=[#513+0.37202*#507-0.37202*#513]
#101=[#514+0.37202*#508-0.37202*#514]
#100=[#102+0.21861*#101-0.21861*#102]
G01 X9.6564Y11.4718Z[#100+-0.0200]
#102=[#513+0.37371*#507-0.37371*#513]
#101=[#514+0.37371*#508-0.37371*#514]
#100=[#102+0.22261*#101-0.22261*#102]
G01 X9.6883Y11.4598Z[#100+-0.0200]
#102=[#513+0.37495*#507-0.37495*#513]
#101=[#514+0.37495*#508-0.37495*#514]
#100=[#102+0.22508*#101-0.22508*#102]
G01 X9.7080Y11.4510Z[#100+-0.0200]
#102=[#513+0.37707*#507-0.37707*#513]
#101=[#514+0.37707*#508-0.37707*#514]
#100=[#102+0.22893*#101-0.22893*#102]
G01 X9.7386Y11.4360Z[#100+-0.0200]
#102=[#513+0.37949*#507-0.37949*#513]
#101=[#514+0.37949*#508-0.37949*#514]
#100=[#102+0.23263*#101-0.23263*#102]
G01 X9.7681Y11.4189Z[#100+-0.0200]
#102=[#513+0.38111*#507-0.38111*#513]
#101=[#514+0.38111*#508-0.38111*#514]
#100=[#102+0.23491*#101-0.23491*#102]
G01 X9.7863Y11.4074Z[#100+-0.0200]
#102=[#513+0.38287*#507-0.38287*#513]
#101=[#514+0.38287*#508-0.38287*#514]
#100=[#102+0.23713*#101-0.23713*#102]
G01 X9.8040Y11.3950Z[#100+-0.0200]
#102=[#513+0.38580*#507-0.38580*#513]
#101=[#514+0.38580*#508-0.38580*#514]
#100=[#102+0.24052*#101-0.24052*#102]
G01 X9.8310Y11.3742Z[#100+-0.0200]
#102=[#513+0.38897*#507-0.38897*#513]
#101=[#514+0.38897*#508-0.38897*#514]
#100=[#102+0.24374*#101-0.24374*#102]
G01 X9.8566Y11.3518Z[#100+-0.0200]
#102=[#513+0.39107*#507-0.39107*#513]
#101=[#514+0.39107*#508-0.39107*#514]
#100=[#102+0.24569*#101-0.24569*#102]
G01 X9.8722Y11.3369Z[#100+-0.0200]
#102=[#513+0.39329*#507-0.39329*#513]
#101=[#514+0.39329*#508-0.39329*#514]
#100=[#102+0.24756*#101-0.24756*#102]
G01 X9.8871Y11.3212Z[#100+-0.0200]
#102=[#513+0.39689*#507-0.39689*#513]
#101=[#514+0.39689*#508-0.39689*#514]
#100=[#102+0.25039*#101-0.25039*#102]
G01 X9.9096Y11.2957Z[#100+-0.0200]
#102=[#513+0.39931*#507-0.39931*#513]
#101=[#514+0.39931*#508-0.39931*#514]
#100=[#102+0.25206*#101-0.25206*#102]
G01 X9.9229Y11.2786Z[#100+-0.0200]
#102=[#513+0.40321*#507-0.40321*#513]
#101=[#514+0.40321*#508-0.40321*#514]
#100=[#102+0.25454*#101-0.25454*#102]
G01 X9.9427Y11.2510Z[#100+-0.0200]
#102=[#513+0.40579*#507-0.40579*#513]
#101=[#514+0.40579*#508-0.40579*#514]
#100=[#102+0.25600*#101-0.25600*#102]
G01 X9.9543Y11.2327Z[#100+-0.0200]
#102=[#513+0.40996*#507-0.40996*#513]
#101=[#514+0.40996*#508-0.40996*#514]
#100=[#102+0.25815*#101-0.25815*#102]
G01 X9.9714Y11.2032Z[#100+-0.0200]
#102=[#513+0.41427*#507-0.41427*#513]
#101=[#514+0.41427*#508-0.41427*#514]
#100=[#102+0.26003*#101-0.26003*#102]
G01 X9.9864Y11.1727Z[#100+-0.0200]
#102=[#513+0.41707*#507-0.41707*#513]
#101=[#514+0.41707*#508-0.41707*#514]
#100=[#102+0.26112*#101-0.26112*#102]
G01 X9.9951Y11.1529Z[#100+-0.0200]
#102=[#513+0.41991*#507-0.41991*#513]
#101=[#514+0.41991*#508-0.41991*#514]
#100=[#102+0.26210*#101-0.26210*#102]
G01 X10.0029Y11.1328Z[#100+-0.0200]
#102=[#513+0.42447*#507-0.42447*#513]
#101=[#514+0.42447*#508-0.42447*#514]
#100=[#102+0.26348*#101-0.26348*#102]
G01 X10.0139Y11.1005Z[#100+-0.0200]
#102=[#513+0.42912*#507-0.42912*#513]
#101=[#514+0.42912*#508-0.42912*#514]
#100=[#102+0.26459*#101-0.26459*#102]
G01 X10.0227Y11.0676Z[#100+-0.0200]
#102=[#513+0.43208*#507-0.43208*#513]
#101=[#514+0.43208*#508-0.43208*#514]
#100=[#102+0.26518*#101-0.26518*#102]
G01 X10.0274Y11.0466Z[#100+-0.0200]
#102=[#513+0.43683*#507-0.43683*#513]
#101=[#514+0.43683*#508-0.43683*#514]
#100=[#102+0.26587*#101-0.26587*#102]
G01 X10.0329Y11.0130Z[#100+-0.0200]
#102=[#513+0.43987*#507-0.43987*#513]
#101=[#514+0.43987*#508-0.43987*#514]
#100=[#102+0.26620*#101-0.26620*#102]
G01 X10.0356Y10.9915Z[#100+-0.0200]
#102=[#513+0.44291*#507-0.44291*#513]
#101=[#514+0.44291*#508-0.44291*#514]
#100=[#102+0.26641*#101-0.26641*#102]
G01 X10.0372Y10.9700Z[#100+-0.0200]
#102=[#513+0.44772*#507-0.44772*#513]
#101=[#514+0.44772*#508-0.44772*#514]
#100=[#102+0.26654*#101-0.26654*#102]
G01 X10.0383Y10.9359Z[#100+-0.0200]
#102=[#513+0.69349*#507-0.69349*#513]
#101=[#514+0.69349*#508-0.69349*#514]
#100=[#102+0.26654*#101-0.26654*#102]
G01 X10.0383Y9.1962Z[#100+-0.0200]
#102=[#513+0.69830*#507-0.69830*#513]
#101=[#514+0.69830*#508-0.69830*#514]
#100=[#102+0.26641*#101-0.26641*#102]
G01 X10.0372Y9.1622Z[#100+-0.0200]
#102=[#513+0.70135*#507-0.70135*#513]
#101=[#514+0.70135*#508-0.70135*#514]
#100=[#102+0.26620*#101-0.26620*#102]
G01 X10.0356Y9.1406Z[#100+-0.0200]
#102=[#513+0.70611*#507-0.70611*#513]
#101=[#514+0.70611*#508-0.70611*#514]
#100=[#102+0.26564*#101-0.26564*#102]
G01 X10.0311Y9.1069Z[#100+-0.0200]
#102=[#513+0.70912*#507-0.70912*#513]
#101=[#514+0.70912*#508-0.70912*#514]
#100=[#102+0.26518*#101-0.26518*#102]
G01 X10.0274Y9.0856Z[#100+-0.0200]
#102=[#513+0.71381*#507-0.71381*#513]
#101=[#514+0.71381*#508-0.71381*#514]
#100=[#102+0.26420*#101-0.26420*#102]
G01 X10.0196Y9.0524Z[#100+-0.0200]
#102=[#513+0.71675*#507-0.71675*#513]
#101=[#514+0.71675*#508-0.71675*#514]
#100=[#102+0.26348*#101-0.26348*#102]
G01 X10.0139Y9.0316Z[#100+-0.0200]
#102=[#513+0.72130*#507-0.72130*#513]
#101=[#514+0.72130*#508-0.72130*#514]
#100=[#102+0.26210*#101-0.26210*#102]
G01 X10.0029Y8.9994Z[#100+-0.0200]
#102=[#513+0.72415*#507-0.72415*#513]
#101=[#514+0.72415*#508-0.72415*#514]
#100=[#102+0.26112*#101-0.26112*#102]
G01 X9.9951Y8.9792Z[#100+-0.0200]
#102=[#513+0.72853*#507-0.72853*#513]
#101=[#514+0.72853*#508-0.72853*#514]
#100=[#102+0.25936*#101-0.25936*#102]
G01 X9.9811Y8.9482Z[#100+-0.0200]
#102=[#513+0.73126*#507-0.73126*#513]
#101=[#514+0.73126*#508-0.73126*#514]
#100=[#102+0.25815*#101-0.25815*#102]
G01 X9.9714Y8.9289Z[#100+-0.0200]
#102=[#513+0.73391*#507-0.73391*#513]
#101=[#514+0.73391*#508-0.73391*#514]
#100=[#102+0.25680*#101-0.25680*#102]
G01 X9.9607Y8.9101Z[#100+-0.0200]
#102=[#513+0.73799*#507-0.73799*#513]
#101=[#514+0.73799*#508-0.73799*#514]
#100=[#102+0.25454*#101-0.25454*#102]
G01 X9.9427Y8.8812Z[#100+-0.0200]
#102=[#513+0.74191*#507-0.74191*#513]
#101=[#514+0.74191*#508-0.74191*#514]
#100=[#102+0.25206*#101-0.25206*#102]
G01 X9.9229Y8.8535Z[#100+-0.0200]
#102=[#513+0.74431*#507-0.74431*#513]
#101=[#514+0.74431*#508-0.74431*#514]
#100=[#102+0.25039*#101-0.25039*#102]
G01 X9.9096Y8.8365Z[#100+-0.0200]
#102=[#513+0.74793*#507-0.74793*#513]
#101=[#514+0.74793*#508-0.74793*#514]
#100=[#102+0.24756*#101-0.24756*#102]
G01 X9.8871Y8.8109Z[#100+-0.0200]
#102=[#513+0.75013*#507-0.75013*#513]
#101=[#514+0.75013*#508-0.75013*#514]
#100=[#102+0.24569*#101-0.24569*#102]
G01 X9.8722Y8.7953Z[#100+-0.0200]
#102=[#513+0.75223*#507-0.75223*#513]
#101=[#514+0.75223*#508-0.75223*#514]
#100=[#102+0.24374*#101-0.24374*#102]
G01 X9.8566Y8.7804Z[#100+-0.0200]
#102=[#513+0.75541*#507-0.75541*#513]
#101=[#514+0.75541*#508-0.75541*#514]
#100=[#102+0.24052*#101-0.24052*#102]
G01 X9.8310Y8.7579Z[#100+-0.0200]
#102=[#513+0.75834*#507-0.75834*#513]
#101=[#514+0.75834*#508-0.75834*#514]
#100=[#102+0.23713*#101-0.23713*#102]
G01 X9.8040Y8.7372Z[#100+-0.0200]
#102=[#513+0.76009*#507-0.76009*#513]
#101=[#514+0.76009*#508-0.76009*#514]
#100=[#102+0.23491*#101-0.23491*#102]
G01 X9.7863Y8.7248Z[#100+-0.0200]
#102=[#513+0.76263*#507-0.76263*#513]
#101=[#514+0.76263*#508-0.76263*#514]
#100=[#102+0.23128*#101-0.23128*#102]
G01 X9.7574Y8.7068Z[#100+-0.0200]
#102=[#513+0.76413*#507-0.76413*#513]
#101=[#514+0.76413*#508-0.76413*#514]
#100=[#102+0.22893*#101-0.22893*#102]
G01 X9.7386Y8.6962Z[#100+-0.0200]
#102=[#513+0.76551*#507-0.76551*#513]
#101=[#514+0.76551*#508-0.76551*#514]
#100=[#102+0.22650*#101-0.22650*#102]
G01 X9.7193Y8.6864Z[#100+-0.0200]
#102=[#513+0.76749*#507-0.76749*#513]
#101=[#514+0.76749*#508-0.76749*#514]
#100=[#102+0.22261*#101-0.22261*#102]
G01 X9.6883Y8.6724Z[#100+-0.0200]
#102=[#513+0.76919*#507-0.76919*#513]
#101=[#514+0.76919*#508-0.76919*#514]
#100=[#102+0.21861*#101-0.21861*#102]
G01 X9.6564Y8.6604Z[#100+-0.0200]
#102=[#513+0.77015*#507-0.77015*#513]
#101=[#514+0.77015*#508-0.77015*#514]
#100=[#102+0.21603*#101-0.21603*#102]
G01 X9.6359Y8.6536Z[#100+-0.0200]
#102=[#513+0.77095*#507-0.77095*#513]
#101=[#514+0.77095*#508-0.77095*#514]
#100=[#102+0.21342*#101-0.21342*#102]
G01 X9.6151Y8.6479Z[#100+-0.0200]
#102=[#513+0.77205*#507-0.77205*#513]
#101=[#514+0.77205*#508-0.77205*#514]
#100=[#102+0.20926*#101-0.20926*#102]
G01 X9.5819Y8.6401Z[#100+-0.0200]
#102=[#513+0.77283*#507-0.77283*#513]
#101=[#514+0.77283*#508-0.77283*#514]
#100=[#102+0.20504*#101-0.20504*#102]
G01 X9.5483Y8.6346Z[#100+-0.0200]
#102=[#513+0.77321*#507-0.77321*#513]
#101=[#514+0.77321*#508-0.77321*#514]
#100=[#102+0.20235*#101-0.20235*#102]
G01 X9.5269Y8.6319Z[#100+-0.0200]
#102=[#513+0.77344*#507-0.77344*#513]
#101=[#514+0.77344*#508-0.77344*#514]
#100=[#102+0.19964*#101-0.19964*#102]
G01 X9.5053Y8.6303Z[#100+-0.0200]
#102=[#513+0.77359*#507-0.77359*#513]
#101=[#514+0.77359*#508-0.77359*#514]
#100=[#102+0.19537*#101-0.19537*#102]
G01 X9.4713Y8.6292Z[#100+-0.0200]
#102=[#512+0.77359*#506-0.77359*#512]
#101=[#513+0.77359*#507-0.77359*#513]
#100=[#102+0.82944*#101-0.82944*#102]
G01 X6.5560Y8.6292Z[#100+-0.0200]
#102=[#512+0.77345*#506-0.77345*#512]
#101=[#513+0.77345*#507-0.77345*#513]
#100=[#102+0.82561*#101-0.82561*#102]
G01 X6.5255Y8.6302Z[#100+-0.0200]
#102=[#512+0.77386*#506-0.77386*#512]
#101=[#513+0.77386*#507-0.77386*#513]
#100=[#102+0.82201*#101-0.82201*#102]
G01 X6.4968Y8.6273Z[#100+-0.0200]
#102=[#512+0.77489*#506-0.77489*#512]
#101=[#513+0.77489*#507-0.77489*#513]
#100=[#102+0.81899*#101-0.81899*#102]
G01 X6.4727Y8.6200Z[#100+-0.0200]
#102=[#512+0.77657*#506-0.77657*#512]
#101=[#513+0.77657*#507-0.77657*#513]
#100=[#102+0.81619*#101-0.81619*#102]
G01 X6.4504Y8.6081Z[#100+-0.0200]
#102=[#512+0.77884*#506-0.77884*#512]
#101=[#513+0.77884*#507-0.77884*#513]
#100=[#102+0.81375*#101-0.81375*#102]
G01 X6.4310Y8.5921Z[#100+-0.0200]
#102=[#512+0.78158*#506-0.78158*#512]
#101=[#513+0.78158*#507-0.78158*#513]
#100=[#102+0.81174*#101-0.81174*#102]
G01 X6.4150Y8.5727Z[#100+-0.0200]
#102=[#512+0.78473*#506-0.78473*#512]
#101=[#513+0.78473*#507-0.78473*#513]
#100=[#102+0.81025*#101-0.81025*#102]
G01 X6.4031Y8.5504Z[#100+-0.0200]
#102=[#512+0.78813*#506-0.78813*#512]
#101=[#513+0.78813*#507-0.78813*#513]
#100=[#102+0.80933*#101-0.80933*#102]
G01 X6.3958Y8.5263Z[#100+-0.0200]
#102=[#512+0.79219*#506-0.79219*#512]
#101=[#513+0.79219*#507-0.79219*#513]
#100=[#102+0.80897*#101-0.80897*#102]
G01 X6.3929Y8.4976Z[#100+-0.0200]
#102=[#512+0.79649*#506-0.79649*#512]
#101=[#513+0.79649*#507-0.79649*#513]
#100=[#102+0.80910*#101-0.80910*#102]
G01 X6.3939Y8.4671Z[#100+-0.0200]
#102=[#506+0.46505*#500-0.46505*#506]
#101=[#507+0.46505*#501-0.46505*#507]
#100=[#102+0.80910*#101-0.80910*#102]
G01 X6.3939Y3.7347Z[#100+-0.0200]
#102=[#506+0.46936*#500-0.46936*#506]
#101=[#507+0.46936*#501-0.46936*#507]
#100=[#102+0.80897*#101-0.80897*#102]
G01 X6.3929Y3.7042Z[#100+-0.0200]
#102=[#506+0.47341*#500-0.47341*#506]
#101=[#507+0.47341*#501-0.47341*#507]
#100=[#102+0.80933*#101-0.80933*#102]
G01 X6.3958Y3.6755Z[#100+-0.0200]
#102=[#506+0.47682*#500-0.47682*#506]
#101=[#507+0.47682*#501-0.47682*#507]
#100=[#102+0.81025*#101-0.81025*#102]
G01 X6.4031Y3.6514Z[#100+-0.0200]
#102=[#506+0.47997*#500-0.47997*#506]
#101=[#507+0.47997*#501-0.47997*#507]
#100=[#102+0.81174*#101-0.81174*#102]
G01 X6.4150Y3.6291Z[#100+-0.0200]
#102=[#506+0.48271*#500-0.48271*#506]
#101=[#507+0.48271*#501-0.48271*#507]
#100=[#102+0.81375*#101-0.81375*#102]
G01 X6.4310Y3.6097Z[#100+-0.0200]
#102=[#506+0.48497*#500-0.48497*#506]
#101=[#507+0.48497*#501-0.48497*#507]
#100=[#102+0.81619*#101-0.81619*#102]
G01 X6.4504Y3.5937Z[#100+-0.0200]
#102=[#506+0.48665*#500-0.48665*#506]
#101=[#507+0.48665*#501-0.48665*#507]
#100=[#102+0.81899*#101-0.81899*#102]
G01 X6.4727Y3.5818Z[#100+-0.0200]
#102=[#506+0.48768*#500-0.48768*#506]
#101=[#507+0.48768*#501-0.48768*#507]
#100=[#102+0.82201*#101-0.82201*#102]
G01 X6.4968Y3.5745Z[#100+-0.0200]
#102=[#506+0.48809*#500-0.48809*#506]
#101=[#507+0.48809*#501-0.48809*#507]
#100=[#102+0.82561*#101-0.82561*#102]
G01 X6.5255Y3.5716Z[#100+-0.0200]
#102=[#506+0.48795*#500-0.48795*#506]
#101=[#507+0.48795*#501-0.48795*#507]
#100=[#102+0.82944*#101-0.82944*#102]
G01 X6.5560Y3.5726Z[#100+-0.0200]
#102=[#507+0.48795*#501-0.48795*#507]
#101=[#508+0.48795*#502-0.48795*#508]
#100=[#102+0.45705*#101-0.45705*#102]
G01 X11.55600Y3.57260Z[#100+-0.0200] ;segmented line. Max segment length set to 5
#102=[#508+0.48795*#502-0.48795*#508]
#101=[#509+0.48795*#503-0.48795*#509]
#100=[#102+0.08465*#101-0.08465*#102]
G01 X16.55600Y3.57260Z[#100+-0.0200] ;segmented line. Max segment length set to 5
#102=[#508+0.48795*#502-0.48795*#508]
#101=[#509+0.48795*#503-0.48795*#509]
#100=[#102+0.71226*#101-0.71226*#102]
G01 X21.55600Y3.57260Z[#100+-0.0200] ;segmented line. Max segment length set to 5
#102=[#509+0.48795*#503-0.48795*#509]
#101=[#510+0.48795*#504-0.48795*#510]
#100=[#102+0.33986*#101-0.33986*#102]
G01 X26.55600Y3.57260Z[#100+-0.0200] ;segmented line. Max segment length set to 5
#102=[#509+0.48795*#503-0.48795*#509]
#101=[#510+0.48795*#504-0.48795*#510]
#100=[#102+0.62304*#101-0.62304*#102]
G01 X28.8120Y3.5726Z[#100+-0.0200]
#102=[#509+0.48809*#503-0.48809*#509]
#101=[#510+0.48809*#504-0.48809*#510]
#100=[#102+0.62686*#101-0.62686*#102]
G01 X28.8425Y3.5716Z[#100+-0.0200]
#102=[#509+0.48768*#503-0.48768*#509]
#101=[#510+0.48768*#504-0.48768*#510]
#100=[#102+0.63047*#101-0.63047*#102]
G01 X28.8712Y3.5745Z[#100+-0.0200]
#102=[#509+0.48665*#503-0.48665*#509]
#101=[#510+0.48665*#504-0.48665*#510]
#100=[#102+0.63349*#101-0.63349*#102]
G01 X28.8953Y3.5818Z[#100+-0.0200]
#102=[#509+0.48497*#503-0.48497*#509]
#101=[#510+0.48497*#504-0.48497*#510]
#100=[#102+0.63629*#101-0.63629*#102]
G01 X28.9176Y3.5937Z[#100+-0.0200]
#102=[#509+0.48271*#503-0.48271*#509]
#101=[#510+0.48271*#504-0.48271*#510]
#100=[#102+0.63873*#101-0.63873*#102]
G01 X28.9370Y3.6097Z[#100+-0.0200]
#102=[#509+0.47997*#503-0.47997*#509]
#101=[#510+0.47997*#504-0.47997*#510]
#100=[#102+0.64073*#101-0.64073*#102]
G01 X28.9530Y3.6291Z[#100+-0.0200]
#102=[#509+0.47682*#503-0.47682*#509]
#101=[#510+0.47682*#504-0.47682*#510]
#100=[#102+0.64223*#101-0.64223*#102]
G01 X28.9649Y3.6514Z[#100+-0.0200]
#102=[#509+0.47341*#503-0.47341*#509]
#101=[#510+0.47341*#504-0.47341*#510]
#100=[#102+0.64314*#101-0.64314*#102]
G01 X28.9722Y3.6755Z[#100+-0.0200]
#102=[#509+0.46936*#503-0.46936*#509]
#101=[#510+0.46936*#504-0.46936*#510]
#100=[#102+0.64351*#101-0.64351*#102]
G01 X28.9751Y3.7042Z[#100+-0.0200]
#102=[#509+0.46505*#503-0.46505*#509]
#101=[#510+0.46505*#504-0.46505*#510]
#100=[#102+0.64338*#101-0.64338*#102]
G01 X28.9741Y3.7347Z[#100+-0.0200]
#102=[#515+0.75869*#509-0.75869*#515]
#101=[#516+0.75869*#510-0.75869*#516]
#100=[#102+0.64338*#101-0.64338*#102]
G01 X28.97410Y8.73470Z[#100+-0.0200] ;segmented line. Max segment length set to 5
#102=[#515+0.53162*#509-0.53162*#515]
#101=[#516+0.53162*#510-0.53162*#516]
#100=[#102+0.64338*#101-0.64338*#102]
G01 X28.9741Y10.3420Z[#100+-0.0200]
#102=[#515+0.52857*#509-0.52857*#515]
#101=[#516+0.52857*#510-0.52857*#516]
#100=[#102+0.64345*#101-0.64345*#102]
G01 X28.9746Y10.3636Z[#100+-0.0200]
#102=[#515+0.52377*#509-0.52377*#515]
#101=[#516+0.52377*#510-0.52377*#516]
#100=[#102+0.64372*#101-0.64372*#102]
G01 X28.9768Y10.3976Z[#100+-0.0200]
#102=[#515+0.52075*#509-0.52075*#515]
#101=[#516+0.52075*#510-0.52075*#516]
#100=[#102+0.64406*#101-0.64406*#102]
G01 X28.9795Y10.4190Z[#100+-0.0200]
#102=[#515+0.51600*#509-0.51600*#515]
#101=[#516+0.51600*#510-0.51600*#516]
#100=[#102+0.64475*#101-0.64475*#102]
G01 X28.9850Y10.4526Z[#100+-0.0200]
#102=[#515+0.51131*#509-0.51131*#515]
#101=[#516+0.51131*#510-0.51131*#516]
#100=[#102+0.64573*#101-0.64573*#102]
G01 X28.9928Y10.4858Z[#100+-0.0200]
#102=[#515+0.50837*#509-0.50837*#515]
#101=[#516+0.50837*#510-0.50837*#516]
#100=[#102+0.64645*#101-0.64645*#102]
G01 X28.9985Y10.5066Z[#100+-0.0200]
#102=[#515+0.50547*#509-0.50547*#515]
#101=[#516+0.50547*#510-0.50547*#516]
#100=[#102+0.64730*#101-0.64730*#102]
G01 X29.0053Y10.5271Z[#100+-0.0200]
#102=[#515+0.50097*#509-0.50097*#515]
#101=[#516+0.50097*#510-0.50097*#516]
#100=[#102+0.64881*#101-0.64881*#102]
G01 X29.0173Y10.5590Z[#100+-0.0200]
#102=[#515+0.49819*#509-0.49819*#515]
#101=[#516+0.49819*#510-0.49819*#516]
#100=[#102+0.64990*#101-0.64990*#102]
G01 X29.0260Y10.5787Z[#100+-0.0200]
#102=[#515+0.49386*#509-0.49386*#515]
#101=[#516+0.49386*#510-0.49386*#516]
#100=[#102+0.65179*#101-0.65179*#102]
G01 X29.0411Y10.6093Z[#100+-0.0200]
#102=[#515+0.49121*#509-0.49121*#515]
#101=[#516+0.49121*#510-0.49121*#516]
#100=[#102+0.65312*#101-0.65312*#102]
G01 X29.0517Y10.6281Z[#100+-0.0200]
#102=[#515+0.48712*#509-0.48712*#515]
#101=[#516+0.48712*#510-0.48712*#516]
#100=[#102+0.65538*#101-0.65538*#102]
G01 X29.0697Y10.6570Z[#100+-0.0200]
#102=[#515+0.48321*#509-0.48321*#515]
#101=[#516+0.48321*#510-0.48321*#516]
#100=[#102+0.65787*#101-0.65787*#102]
G01 X29.0895Y10.6847Z[#100+-0.0200]
#102=[#515+0.48081*#509-0.48081*#515]
#101=[#516+0.48081*#510-0.48081*#516]
#100=[#102+0.65954*#101-0.65954*#102]
G01 X29.1028Y10.7017Z[#100+-0.0200]
#102=[#515+0.47719*#509-0.47719*#515]
#101=[#516+0.47719*#510-0.47719*#516]
#100=[#102+0.66236*#101-0.66236*#102]
G01 X29.1253Y10.7273Z[#100+-0.0200]
#102=[#515+0.47499*#509-0.47499*#515]
#101=[#516+0.47499*#510-0.47499*#516]
#100=[#102+0.66423*#101-0.66423*#102]
G01 X29.1402Y10.7429Z[#100+-0.0200]
#102=[#515+0.47288*#509-0.47288*#515]
#101=[#516+0.47288*#510-0.47288*#516]
#100=[#102+0.66619*#101-0.66619*#102]
G01 X29.1558Y10.7578Z[#100+-0.0200]
#102=[#515+0.46971*#509-0.46971*#515]
#101=[#516+0.46971*#510-0.46971*#516]
#100=[#102+0.66940*#101-0.66940*#102]
G01 X29.1814Y10.7803Z[#100+-0.0200]
#102=[#515+0.46783*#509-0.46783*#515]
#101=[#516+0.46783*#510-0.46783*#516]
#100=[#102+0.67154*#101-0.67154*#102]
G01 X29.1984Y10.7936Z[#100+-0.0200]
#102=[#515+0.46501*#509-0.46501*#515]
#101=[#516+0.46501*#510-0.46501*#516]
#100=[#102+0.67501*#101-0.67501*#102]
G01 X29.2261Y10.8135Z[#100+-0.0200]
#102=[#515+0.46249*#509-0.46249*#515]
#101=[#516+0.46249*#510-0.46249*#516]
#100=[#102+0.67864*#101-0.67864*#102]
G01 X29.2550Y10.8314Z[#100+-0.0200]
#102=[#515+0.46097*#509-0.46097*#515]
#101=[#516+0.46097*#510-0.46097*#516]
#100=[#102+0.68100*#101-0.68100*#102]
G01 X29.2738Y10.8421Z[#100+-0.0200]
#102=[#515+0.45960*#509-0.45960*#515]
#101=[#516+0.45960*#510-0.45960*#516]
#100=[#102+0.68342*#101-0.68342*#102]
G01 X29.2931Y10.8518Z[#100+-0.0200]
#102=[#515+0.45763*#509-0.45763*#515]
#101=[#516+0.45763*#510-0.45763*#516]
#100=[#102+0.68731*#101-0.68731*#102]
G01 X29.3241Y10.8658Z[#100+-0.0200]
#102=[#515+0.45593*#509-0.45593*#515]
#101=[#516+0.45593*#510-0.45593*#516]
#100=[#102+0.69132*#101-0.69132*#102]
G01 X29.3560Y10.8778Z[#100+-0.0200]
#102=[#515+0.45497*#509-0.45497*#515]
#101=[#516+0.45497*#510-0.45497*#516]
#100=[#102+0.69389*#101-0.69389*#102]
G01 X29.3765Y10.8846Z[#100+-0.0200]
#102=[#515+0.45415*#509-0.45415*#515]
#101=[#516+0.45415*#510-0.45415*#516]
#100=[#102+0.69650*#101-0.69650*#102]
G01 X29.3973Y10.8904Z[#100+-0.0200]
#102=[#515+0.45306*#509-0.45306*#515]
#101=[#516+0.45306*#510-0.45306*#516]
#100=[#102+0.70067*#101-0.70067*#102]
G01 X29.4305Y10.8981Z[#100+-0.0200]
#102=[#515+0.45267*#509-0.45267*#515]
#101=[#516+0.45267*#510-0.45267*#516]
#100=[#102+0.70269*#101-0.70269*#102]
G01 X29.4466Y10.9009Z[#100+-0.0200]
#102=[#515+0.44820*#509-0.44820*#515]
#101=[#516+0.44820*#510-0.44820*#516]
#100=[#102+0.70152*#101-0.70152*#102]
G01 X29.4373Y10.9325Z[#100+-0.0200]
#102=[#515+0.43515*#509-0.43515*#515]
#101=[#516+0.43515*#510-0.43515*#516]
#100=[#102+0.69869*#101-0.69869*#102]
G01 X29.4147Y11.0249Z[#100+-0.0200]
#102=[#515+0.43214*#509-0.43214*#515]
#101=[#516+0.43214*#510-0.43214*#516]
#100=[#102+0.69822*#101-0.69822*#102]
G01 X29.4110Y11.0462Z[#100+-0.0200]
#102=[#515+0.41882*#509-0.41882*#515]
#101=[#516+0.41882*#510-0.41882*#516]
#100=[#102+0.69653*#101-0.69653*#102]
G01 X29.3975Y11.1405Z[#100+-0.0200]
#102=[#515+0.41578*#509-0.41578*#515]
#101=[#516+0.41578*#510-0.41578*#516]
#100=[#102+0.69633*#101-0.69633*#102]
G01 X29.3959Y11.1620Z[#100+-0.0200]
#102=[#515+0.40235*#509-0.40235*#515]
#101=[#516+0.40235*#510-0.40235*#516]
#100=[#102+0.69581*#101-0.69581*#102]
G01 X29.3918Y11.2571Z[#100+-0.0200]
#102=[#515+0.38891*#509-0.38891*#515]
#101=[#516+0.38891*#510-0.38891*#516]
#100=[#102+0.69633*#101-0.69633*#102]
G01 X29.3959Y11.3522Z[#100+-0.0200]
#102=[#515+0.38587*#509-0.38587*#515]
#101=[#516+0.38587*#510-0.38587*#516]
#100=[#102+0.69653*#101-0.69653*#102]
G01 X29.3975Y11.3737Z[#100+-0.0200]
#102=[#515+0.37255*#509-0.37255*#515]
#101=[#516+0.37255*#510-0.37255*#516]
#100=[#102+0.69822*#101-0.69822*#102]
G01 X29.4110Y11.4680Z[#100+-0.0200]
#102=[#515+0.36954*#509-0.36954*#515]
#101=[#516+0.36954*#510-0.36954*#516]
#100=[#102+0.69869*#101-0.69869*#102]
G01 X29.4147Y11.4893Z[#100+-0.0200]
#102=[#515+0.35649*#509-0.35649*#515]
#101=[#516+0.35649*#510-0.35649*#516]
#100=[#102+0.70152*#101-0.70152*#102]
G01 X29.4373Y11.5817Z[#100+-0.0200]
#102=[#515+0.35355*#509-0.35355*#515]
#101=[#516+0.35355*#510-0.35355*#516]
#100=[#102+0.70224*#101-0.70224*#102]
G01 X29.4430Y11.6025Z[#100+-0.0200]
#102=[#515+0.35066*#509-0.35066*#515]
#101=[#516+0.35066*#510-0.35066*#516]
#100=[#102+0.70309*#101-0.70309*#102]
G01 X29.4498Y11.6230Z[#100+-0.0200]
#102=[#515+0.33801*#509-0.33801*#515]
#101=[#516+0.33801*#510-0.33801*#516]
#100=[#102+0.70718*#101-0.70718*#102]
G01 X29.4824Y11.7125Z[#100+-0.0200]
#102=[#515+0.33523*#509-0.33523*#515]
#101=[#516+0.33523*#510-0.33523*#516]
#100=[#102+0.70828*#101-0.70828*#102]
G01 X29.4911Y11.7322Z[#100+-0.0200]
#102=[#515+0.32309*#509-0.32309*#515]
#101=[#516+0.32309*#510-0.32309*#516]
#100=[#102+0.71345*#101-0.71345*#102]
G01 X29.5323Y11.8181Z[#100+-0.0200]
#102=[#515+0.32044*#509-0.32044*#515]
#101=[#516+0.32044*#510-0.32044*#516]
#100=[#102+0.71479*#101-0.71479*#102]
G01 X29.5430Y11.8369Z[#100+-0.0200]
#102=[#515+0.30895*#509-0.30895*#515]
#101=[#516+0.30895*#510-0.30895*#516]
#100=[#102+0.72099*#101-0.72099*#102]
G01 X29.5924Y11.9182Z[#100+-0.0200]
#102=[#515+0.29810*#509-0.29810*#515]
#101=[#516+0.29810*#510-0.29810*#516]
#100=[#102+0.72805*#101-0.72805*#102]
G01 X29.6486Y11.9950Z[#100+-0.0200]
#102=[#515+0.29570*#509-0.29570*#515]
#101=[#516+0.29570*#510-0.29570*#516]
#100=[#102+0.72972*#101-0.72972*#102]
G01 X29.6619Y12.0120Z[#100+-0.0200]
#102=[#515+0.29338*#509-0.29338*#515]
#101=[#516+0.29338*#510-0.29338*#516]
#100=[#102+0.73149*#101-0.73149*#102]
G01 X29.6760Y12.0284Z[#100+-0.0200]
#102=[#515+0.28568*#509-0.28568*#515]
#101=[#516+0.28568*#510-0.28568*#516]
#100=[#102+0.73770*#101-0.73770*#102]
G01 X29.7255Y12.0829Z[#100+-0.0200]
#102=[#515+0.28347*#509-0.28347*#515]
#101=[#516+0.28347*#510-0.28347*#516]
#100=[#102+0.73956*#101-0.73956*#102]
G01 X29.7403Y12.0986Z[#100+-0.0200]
#102=[#515+0.28138*#509-0.28138*#515]
#101=[#516+0.28138*#510-0.28138*#516]
#100=[#102+0.74153*#101-0.74153*#102]
G01 X29.7560Y12.1134Z[#100+-0.0200]
#102=[#515+0.27239*#509-0.27239*#515]
#101=[#516+0.27239*#510-0.27239*#516]
#100=[#102+0.75043*#101-0.75043*#102]
G01 X29.8269Y12.1770Z[#100+-0.0200]
#102=[#515+0.26432*#509-0.26432*#515]
#101=[#516+0.26432*#510-0.26432*#516]
#100=[#102+0.75998*#101-0.75998*#102]
G01 X29.9030Y12.2341Z[#100+-0.0200]
#102=[#515+0.26257*#509-0.26257*#515]
#101=[#516+0.26257*#510-0.26257*#516]
#100=[#102+0.76220*#101-0.76220*#102]
G01 X29.9207Y12.2465Z[#100+-0.0200]
#102=[#515+0.26093*#509-0.26093*#515]
#101=[#516+0.26093*#510-0.26093*#516]
#100=[#102+0.76449*#101-0.76449*#102]
G01 X29.9389Y12.2581Z[#100+-0.0200]
#102=[#515+0.25408*#509-0.25408*#515]
#101=[#516+0.25408*#510-0.25408*#516]
#100=[#102+0.77477*#101-0.77477*#102]
G01 X30.0208Y12.3066Z[#100+-0.0200]
#102=[#515+0.25271*#509-0.25271*#515]
#101=[#516+0.25271*#510-0.25271*#516]
#100=[#102+0.77719*#101-0.77719*#102]
G01 X30.0401Y12.3163Z[#100+-0.0200]
#102=[#515+0.24703*#509-0.24703*#515]
#101=[#516+0.24703*#510-0.24703*#516]
#100=[#102+0.78802*#101-0.78802*#102]
G01 X30.1264Y12.3565Z[#100+-0.0200]
#102=[#515+0.24243*#509-0.24243*#515]
#101=[#516+0.24243*#510-0.24243*#516]
#100=[#102+0.79925*#101-0.79925*#102]
G01 X30.2159Y12.3891Z[#100+-0.0200]
#102=[#515+0.24147*#509-0.24147*#515]
#101=[#516+0.24147*#510-0.24147*#516]
#100=[#102+0.80183*#101-0.80183*#102]
G01 X30.2364Y12.3959Z[#100+-0.0200]
#102=[#515+0.23813*#509-0.23813*#515]
#101=[#516+0.23813*#510-0.23813*#516]
#100=[#102+0.81340*#101-0.81340*#102]
G01 X30.3286Y12.4195Z[#100+-0.0200]
#102=[#515+0.23747*#509-0.23747*#515]
#101=[#516+0.23747*#510-0.23747*#516]
#100=[#102+0.81604*#101-0.81604*#102]
G01 X30.3496Y12.4242Z[#100+-0.0200]
#102=[#515+0.23695*#509-0.23695*#515]
#101=[#516+0.23695*#510-0.23695*#516]
#100=[#102+0.81871*#101-0.81871*#102]
G01 X30.3709Y12.4279Z[#100+-0.0200]
#102=[#515+0.23504*#509-0.23504*#515]
#101=[#516+0.23504*#510-0.23504*#516]
#100=[#102+0.83055*#101-0.83055*#102]
G01 X30.4652Y12.4414Z[#100+-0.0200]
#102=[#515+0.23425*#509-0.23425*#515]
#101=[#516+0.23425*#510-0.23425*#516]
#100=[#102+0.84383*#101-0.84383*#102]
G01 X30.5710Y12.4470Z[#100+-0.0200]
#102=[#515+0.23423*#509-0.23423*#515]
#101=[#516+0.23423*#510-0.23423*#516]
#100=[#102+0.89283*#101-0.89283*#102]
G01 X30.9614Y12.4471Z[#100+-0.0200]
#102=[#515+0.23481*#509-0.23481*#515]
#101=[#516+0.23481*#510-0.23481*#516]
#100=[#102+0.90477*#101-0.90477*#102]
G01 X31.0565Y12.4430Z[#100+-0.0200]
#102=[#515+0.23504*#509-0.23504*#515]
#101=[#516+0.23504*#510-0.23504*#516]
#100=[#102+0.90747*#101-0.90747*#102]
G01 X31.0780Y12.4414Z[#100+-0.0200]
#102=[#515+0.23542*#509-0.23542*#515]
#101=[#516+0.23542*#510-0.23542*#516]
#100=[#102+0.91016*#101-0.91016*#102]
G01 X31.0995Y12.4387Z[#100+-0.0200]
#102=[#515+0.23695*#509-0.23695*#515]
#101=[#516+0.23695*#510-0.23695*#516]
#100=[#102+0.91930*#101-0.91930*#102]
G01 X31.1723Y12.4279Z[#100+-0.0200]
#102=[#515+0.23747*#509-0.23747*#515]
#101=[#516+0.23747*#510-0.23747*#516]
#100=[#102+0.92198*#101-0.92198*#102]
G01 X31.1936Y12.4242Z[#100+-0.0200]
#102=[#515+0.23813*#509-0.23813*#515]
#101=[#516+0.23813*#510-0.23813*#516]
#100=[#102+0.92461*#101-0.92461*#102]
G01 X31.2146Y12.4195Z[#100+-0.0200]
#102=[#515+0.24147*#509-0.24147*#515]
#101=[#516+0.24147*#510-0.24147*#516]
#100=[#102+0.93619*#101-0.93619*#102]
G01 X31.3068Y12.3959Z[#100+-0.0200]
#102=[#515+0.24243*#509-0.24243*#515]
#101=[#516+0.24243*#510-0.24243*#516]
#100=[#102+0.93876*#101-0.93876*#102]
G01 X31.3273Y12.3891Z[#100+-0.0200]
#102=[#515+0.24703*#509-0.24703*#515]
#101=[#516+0.24703*#510-0.24703*#516]
#100=[#102+0.94999*#101-0.94999*#102]
G01 X31.4168Y12.3565Z[#100+-0.0200]
#102=[#515+0.25271*#509-0.25271*#515]
#101=[#516+0.25271*#510-0.25271*#516]
#100=[#102+0.96082*#101-0.96082*#102]
G01 X31.5031Y12.3163Z[#100+-0.0200]
#102=[#515+0.25408*#509-0.25408*#515]
#101=[#516+0.25408*#510-0.25408*#516]
#100=[#102+0.96325*#101-0.96325*#102]
G01 X31.5224Y12.3066Z[#100+-0.0200]
#102=[#515+0.26093*#509-0.26093*#515]
#101=[#516+0.26093*#510-0.26093*#516]
#100=[#102+0.97353*#101-0.97353*#102]
G01 X31.6043Y12.2581Z[#100+-0.0200]
#102=[#515+0.26257*#509-0.26257*#515]
#101=[#516+0.26257*#510-0.26257*#516]
#100=[#102+0.97581*#101-0.97581*#102]
G01 X31.6225Y12.2465Z[#100+-0.0200]
#102=[#515+0.26432*#509-0.26432*#515]
#101=[#516+0.26432*#510-0.26432*#516]
#100=[#102+0.97803*#101-0.97803*#102]
G01 X31.6402Y12.2341Z[#100+-0.0200]
#102=[#515+0.27239*#509-0.27239*#515]
#101=[#516+0.27239*#510-0.27239*#516]
#100=[#102+0.98759*#101-0.98759*#102]
G01 X31.7163Y12.1770Z[#100+-0.0200]
#102=[#515+0.27438*#509-0.27438*#515]
#101=[#516+0.27438*#510-0.27438*#516]
#100=[#102+0.98964*#101-0.98964*#102]
G01 X31.7327Y12.1629Z[#100+-0.0200]
#102=[#515+0.28347*#509-0.28347*#515]
#101=[#516+0.28347*#510-0.28347*#516]
#100=[#102+0.99846*#101-0.99846*#102]
G01 X31.8029Y12.0986Z[#100+-0.0200]
#102=[#516+0.29338*#510-0.29338*#516]
#101=[#517+0.29338*#511-0.29338*#517]
#100=[#102+0.00653*#101-0.00653*#102]
G01 X31.8672Y12.0284Z[#100+-0.0200]
#102=[#516+0.29570*#510-0.29570*#516]
#101=[#517+0.29570*#511-0.29570*#517]
#100=[#102+0.00830*#101-0.00830*#102]
G01 X31.8813Y12.0120Z[#100+-0.0200]
#102=[#516+0.30645*#510-0.30645*#516]
#101=[#517+0.30645*#511-0.30645*#517]
#100=[#102+0.01546*#101-0.01546*#102]
G01 X31.9384Y11.9359Z[#100+-0.0200]
#102=[#516+0.30895*#510-0.30895*#516]
#101=[#517+0.30895*#511-0.30895*#517]
#100=[#102+0.01702*#101-0.01702*#102]
G01 X31.9508Y11.9182Z[#100+-0.0200]
#102=[#516+0.32044*#510-0.32044*#516]
#101=[#517+0.32044*#511-0.32044*#517]
#100=[#102+0.02322*#101-0.02322*#102]
G01 X32.0002Y11.8369Z[#100+-0.0200]
#102=[#516+0.32309*#510-0.32309*#516]
#101=[#517+0.32309*#511-0.32309*#517]
#100=[#102+0.02456*#101-0.02456*#102]
G01 X32.0109Y11.8181Z[#100+-0.0200]
#102=[#516+0.33209*#510-0.33209*#516]
#101=[#517+0.33209*#511-0.33209*#517]
#100=[#102+0.02842*#101-0.02842*#102]
G01 X32.0416Y11.7544Z[#100+-0.0200]
#102=[#516+0.32309*#510-0.32309*#516]
#101=[#517+0.32309*#511-0.32309*#517]
#100=[#102+0.03227*#101-0.03227*#102]
G01 X32.0723Y11.8181Z[#100+-0.0200]
#102=[#516+0.32044*#510-0.32044*#516]
#101=[#517+0.32044*#511-0.32044*#517]
#100=[#102+0.03361*#101-0.03361*#102]
G01 X32.0830Y11.8369Z[#100+-0.0200]
#102=[#516+0.30895*#510-0.30895*#516]
#101=[#517+0.30895*#511-0.30895*#517]
#100=[#102+0.03982*#101-0.03982*#102]
G01 X32.1324Y11.9182Z[#100+-0.0200]
#102=[#516+0.30645*#510-0.30645*#516]
#101=[#517+0.30645*#511-0.30645*#517]
#100=[#102+0.04137*#101-0.04137*#102]
G01 X32.1448Y11.9359Z[#100+-0.0200]
#102=[#516+0.29570*#510-0.29570*#516]
#101=[#517+0.29570*#511-0.29570*#517]
#100=[#102+0.04854*#101-0.04854*#102]
G01 X32.2019Y12.0120Z[#100+-0.0200]
#102=[#516+0.28568*#510-0.28568*#516]
#101=[#517+0.28568*#511-0.28568*#517]
#100=[#102+0.05652*#101-0.05652*#102]
G01 X32.2655Y12.0829Z[#100+-0.0200]
#102=[#516+0.28347*#510-0.28347*#516]
#101=[#517+0.28347*#511-0.28347*#517]
#100=[#102+0.05838*#101-0.05838*#102]
G01 X32.2803Y12.0986Z[#100+-0.0200]
#102=[#516+0.27438*#510-0.27438*#516]
#101=[#517+0.27438*#511-0.27438*#517]
#100=[#102+0.06719*#101-0.06719*#102]
G01 X32.3505Y12.1629Z[#100+-0.0200]
#102=[#516+0.27239*#510-0.27239*#516]
#101=[#517+0.27239*#511-0.27239*#517]
#100=[#102+0.06925*#101-0.06925*#102]
G01 X32.3669Y12.1770Z[#100+-0.0200]
#102=[#516+0.26432*#510-0.26432*#516]
#101=[#517+0.26432*#511-0.26432*#517]
#100=[#102+0.07880*#101-0.07880*#102]
G01 X32.4430Y12.2341Z[#100+-0.0200]
#102=[#516+0.26257*#510-0.26257*#516]
#101=[#517+0.26257*#511-0.26257*#517]
#100=[#102+0.08102*#101-0.08102*#102]
G01 X32.4607Y12.2465Z[#100+-0.0200]
#102=[#516+0.26093*#510-0.26093*#516]
#101=[#517+0.26093*#511-0.26093*#517]
#100=[#102+0.08331*#101-0.08331*#102]
G01 X32.4789Y12.2581Z[#100+-0.0200]
#102=[#516+0.25559*#510-0.25559*#516]
#101=[#517+0.25559*#511-0.25559*#517]
#100=[#102+0.09123*#101-0.09123*#102]
G01 X32.5420Y12.2959Z[#100+-0.0200]
#102=[#516+0.25408*#510-0.25408*#516]
#101=[#517+0.25408*#511-0.25408*#517]
#100=[#102+0.09359*#101-0.09359*#102]
G01 X32.5608Y12.3066Z[#100+-0.0200]
#102=[#516+0.25271*#510-0.25271*#516]
#101=[#517+0.25271*#511-0.25271*#517]
#100=[#102+0.09601*#101-0.09601*#102]
G01 X32.5801Y12.3163Z[#100+-0.0200]
#102=[#516+0.24703*#510-0.24703*#516]
#101=[#517+0.24703*#511-0.24703*#517]
#100=[#102+0.10684*#101-0.10684*#102]
G01 X32.6664Y12.3565Z[#100+-0.0200]
#102=[#516+0.24593*#510-0.24593*#516]
#101=[#517+0.24593*#511-0.24593*#517]
#100=[#102+0.10938*#101-0.10938*#102]
G01 X32.6866Y12.3643Z[#100+-0.0200]
#102=[#516+0.24147*#510-0.24147*#516]
#101=[#517+0.24147*#511-0.24147*#517]
#100=[#102+0.12065*#101-0.12065*#102]
G01 X32.7764Y12.3959Z[#100+-0.0200]
#102=[#516+0.24066*#510-0.24066*#516]
#101=[#517+0.24066*#511-0.24066*#517]
#100=[#102+0.12326*#101-0.12326*#102]
G01 X32.7972Y12.4016Z[#100+-0.0200]
#102=[#516+0.23747*#510-0.23747*#516]
#101=[#517+0.23747*#511-0.23747*#517]
#100=[#102+0.13486*#101-0.13486*#102]
G01 X32.8896Y12.4242Z[#100+-0.0200]
#102=[#516+0.23542*#510-0.23542*#516]
#101=[#517+0.23542*#511-0.23542*#517]
#100=[#102+0.14667*#101-0.14667*#102]
G01 X32.9837Y12.4387Z[#100+-0.0200]
#102=[#516+0.23504*#510-0.23504*#516]
#101=[#517+0.23504*#511-0.23504*#517]
#100=[#102+0.14937*#101-0.14937*#102]
G01 X33.0052Y12.4414Z[#100+-0.0200]
#102=[#516+0.23481*#510-0.23481*#516]
#101=[#517+0.23481*#511-0.23481*#517]
#100=[#102+0.15207*#101-0.15207*#102]
G01 X33.0267Y12.4430Z[#100+-0.0200]
#102=[#516+0.23425*#510-0.23425*#516]
#101=[#517+0.23425*#511-0.23425*#517]
#100=[#102+0.16265*#101-0.16265*#102]
G01 X33.1110Y12.4470Z[#100+-0.0200]
#102=[#516+0.23423*#510-0.23423*#516]
#101=[#517+0.23423*#511-0.23423*#517]
#100=[#102+0.21177*#101-0.21177*#102]
G01 X33.5023Y12.4471Z[#100+-0.0200]
#102=[#516+0.23079*#510-0.23079*#516]
#101=[#517+0.23079*#511-0.23079*#517]
#100=[#102+0.21138*#101-0.21138*#102]
G01 X33.4992Y12.4715Z[#100+-0.0200]
#102=[#516+0.22774*#510-0.22774*#516]
#101=[#517+0.22774*#511-0.22774*#517]
#100=[#102+0.21118*#101-0.21118*#102]
G01 X33.4976Y12.4931Z[#100+-0.0200]
#102=[#516+0.22293*#510-0.22293*#516]
#101=[#517+0.22293*#511-0.22293*#517]
#100=[#102+0.21104*#101-0.21104*#102]
G01 X33.4965Y12.5271Z[#100+-0.0200]
#102=[#516+0.21813*#510-0.21813*#516]
#101=[#517+0.21813*#511-0.21813*#517]
#100=[#102+0.21118*#101-0.21118*#102]
G01 X33.4976Y12.5611Z[#100+-0.0200]
#102=[#516+0.21508*#510-0.21508*#516]
#101=[#517+0.21508*#511-0.21508*#517]
#100=[#102+0.21138*#101-0.21138*#102]
G01 X33.4992Y12.5827Z[#100+-0.0200]
#102=[#516+0.21163*#510-0.21163*#516]
#101=[#517+0.21163*#511-0.21163*#517]
#100=[#102+0.21177*#101-0.21177*#102]
G01 X33.5023Y12.6071Z[#100+-0.0200]
#102=[#516+0.21162*#510-0.21162*#516]
#101=[#517+0.21162*#511-0.21162*#517]
#100=[#102+0.16265*#101-0.16265*#102]
G01 X33.1110Y12.6072Z[#100+-0.0200]
#102=[#516+0.21083*#510-0.21083*#516]
#101=[#517+0.21083*#511-0.21083*#517]
#100=[#102+0.14937*#101-0.14937*#102]
G01 X33.0052Y12.6128Z[#100+-0.0200]
#102=[#516+0.20892*#510-0.20892*#516]
#101=[#517+0.20892*#511-0.20892*#517]
#100=[#102+0.13753*#101-0.13753*#102]
G01 X32.9109Y12.6263Z[#100+-0.0200]
#102=[#516+0.20840*#510-0.20840*#516]
#101=[#517+0.20840*#511-0.20840*#517]
#100=[#102+0.13486*#101-0.13486*#102]
G01 X32.8896Y12.6300Z[#100+-0.0200]
#102=[#516+0.20773*#510-0.20773*#516]
#101=[#517+0.20773*#511-0.20773*#517]
#100=[#102+0.13222*#101-0.13222*#102]
G01 X32.8686Y12.6347Z[#100+-0.0200]
#102=[#516+0.20440*#510-0.20440*#516]
#101=[#517+0.20440*#511-0.20440*#517]
#100=[#102+0.12065*#101-0.12065*#102]
G01 X32.7764Y12.6583Z[#100+-0.0200]
#102=[#516+0.19993*#510-0.19993*#516]
#101=[#517+0.19993*#511-0.19993*#517]
#100=[#102+0.10938*#101-0.10938*#102]
G01 X32.6866Y12.6899Z[#100+-0.0200]
#102=[#516+0.19883*#510-0.19883*#516]
#101=[#517+0.19883*#511-0.19883*#517]
#100=[#102+0.10684*#101-0.10684*#102]
G01 X32.6664Y12.6977Z[#100+-0.0200]
#102=[#516+0.19760*#510-0.19760*#516]
#101=[#517+0.19760*#511-0.19760*#517]
#100=[#102+0.10437*#101-0.10437*#102]
G01 X32.6467Y12.7064Z[#100+-0.0200]
#102=[#516+0.19315*#510-0.19315*#516]
#101=[#517+0.19315*#511-0.19315*#517]
#100=[#102+0.09601*#101-0.09601*#102]
G01 X32.5801Y12.7379Z[#100+-0.0200]
#102=[#516+0.19178*#510-0.19178*#516]
#101=[#517+0.19178*#511-0.19178*#517]
#100=[#102+0.09359*#101-0.09359*#102]
G01 X32.5608Y12.7476Z[#100+-0.0200]
#102=[#516+0.19027*#510-0.19027*#516]
#101=[#517+0.19027*#511-0.19027*#517]
#100=[#102+0.09123*#101-0.09123*#102]
G01 X32.5420Y12.7583Z[#100+-0.0200]
#102=[#516+0.18329*#510-0.18329*#516]
#101=[#517+0.18329*#511-0.18329*#517]
#100=[#102+0.08102*#101-0.08102*#102]
G01 X32.4607Y12.8077Z[#100+-0.0200]
#102=[#516+0.17535*#510-0.17535*#516]
#101=[#517+0.17535*#511-0.17535*#517]
#100=[#102+0.07138*#101-0.07138*#102]
G01 X32.3839Y12.8639Z[#100+-0.0200]
#102=[#516+0.17347*#510-0.17347*#516]
#101=[#517+0.17347*#511-0.17347*#517]
#100=[#102+0.06925*#101-0.06925*#102]
G01 X32.3669Y12.8772Z[#100+-0.0200]
#102=[#516+0.17148*#510-0.17148*#516]
#101=[#517+0.17148*#511-0.17148*#517]
#100=[#102+0.06719*#101-0.06719*#102]
G01 X32.3505Y12.8913Z[#100+-0.0200]
#102=[#516+0.16449*#510-0.16449*#516]
#101=[#517+0.16449*#511-0.16449*#517]
#100=[#102+0.06035*#101-0.06035*#102]
G01 X32.2960Y12.9408Z[#100+-0.0200]
#102=[#516+0.16240*#510-0.16240*#516]
#101=[#517+0.16240*#511-0.16240*#517]
#100=[#102+0.05838*#101-0.05838*#102]
G01 X32.2803Y12.9556Z[#100+-0.0200]
#102=[#516+0.16018*#510-0.16018*#516]
#101=[#517+0.16018*#511-0.16018*#517]
#100=[#102+0.05652*#101-0.05652*#102]
G01 X32.2655Y12.9713Z[#100+-0.0200]
#102=[#516+0.15016*#510-0.15016*#516]
#101=[#517+0.15016*#511-0.15016*#517]
#100=[#102+0.04854*#101-0.04854*#102]
G01 X32.2019Y13.0422Z[#100+-0.0200]
#102=[#516+0.13941*#510-0.13941*#516]
#101=[#517+0.13941*#511-0.13941*#517]
#100=[#102+0.04137*#101-0.04137*#102]
G01 X32.1448Y13.1183Z[#100+-0.0200]
#102=[#516+0.13691*#510-0.13691*#516]
#101=[#517+0.13691*#511-0.13691*#517]
#100=[#102+0.03982*#101-0.03982*#102]
G01 X32.1324Y13.1360Z[#100+-0.0200]
#102=[#516+0.12543*#510-0.12543*#516]
#101=[#517+0.12543*#511-0.12543*#517]
#100=[#102+0.03361*#101-0.03361*#102]
G01 X32.0830Y13.2173Z[#100+-0.0200]
#102=[#516+0.12277*#510-0.12277*#516]
#101=[#517+0.12277*#511-0.12277*#517]
#100=[#102+0.03227*#101-0.03227*#102]
G01 X32.0723Y13.2361Z[#100+-0.0200]
#102=[#516+0.11377*#510-0.11377*#516]
#101=[#517+0.11377*#511-0.11377*#517]
#100=[#102+0.02842*#101-0.02842*#102]
G01 X32.0416Y13.2998Z[#100+-0.0200]
#102=[#516+0.12277*#510-0.12277*#516]
#101=[#517+0.12277*#511-0.12277*#517]
#100=[#102+0.02456*#101-0.02456*#102]
G01 X32.0109Y13.2361Z[#100+-0.0200]
#102=[#516+0.13434*#510-0.13434*#516]
#101=[#517+0.13434*#511-0.13434*#517]
#100=[#102+0.01848*#101-0.01848*#102]
G01 X31.9624Y13.1542Z[#100+-0.0200]
#102=[#516+0.13691*#510-0.13691*#516]
#101=[#517+0.13691*#511-0.13691*#517]
#100=[#102+0.01702*#101-0.01702*#102]
G01 X31.9508Y13.1360Z[#100+-0.0200]
#102=[#516+0.13941*#510-0.13941*#516]
#101=[#517+0.13941*#511-0.13941*#517]
#100=[#102+0.01546*#101-0.01546*#102]
G01 X31.9384Y13.1183Z[#100+-0.0200]
#102=[#516+0.14776*#510-0.14776*#516]
#101=[#517+0.14776*#511-0.14776*#517]
#100=[#102+0.00997*#101-0.00997*#102]
G01 X31.8946Y13.0592Z[#100+-0.0200]
#102=[#516+0.15016*#510-0.15016*#516]
#101=[#517+0.15016*#511-0.15016*#517]
#100=[#102+0.00830*#101-0.00830*#102]
G01 X31.8813Y13.0422Z[#100+-0.0200]
#102=[#516+0.15248*#510-0.15248*#516]
#101=[#517+0.15248*#511-0.15248*#517]
#100=[#102+0.00653*#101-0.00653*#102]
G01 X31.8672Y13.0258Z[#100+-0.0200]
